;-- START GCODE --
;Sliced for Type A Machines Series 1
;Sliced at: Tue 20-02-2018 18:25:26
;Basic settings:
; Layer height: 0.4
; Walls: 1.2
; Fill: 8
; Print Speed: 50
; Support: 0
; Retraction Speed: 35
; Retraction Distance: 0.4
;Print time: 4 hours 6 minutes
;Filament used: 40.331m 120.0g
;Settings based on: Type A Machines Everyday PLA
G21        ;metric values
G90        ;absolute positioning
G28     ;move to endstops
G29     ;allows for auto-leveling
G1 Z15.0 F12000 ;move the platform down 15mm
G1 X150 Y5 F12000 ;center
M140 S70 ;Prep Heat Bed
M109 S220 ;Heat To temp
M190 S70 ;Heat Bed to temp
G1 X150 Y5 Z0.3 ;move the platform to purge extrusion
G92 E0 ;zero the extruded length
G1 F200 X250 E30 ;extrude 30mm of feed stock
G92 E0 ;zero the extruded length again
G1 X150 Y150  Z25 F12000 ;recenter and begin
G1 F12000

;Layer count: 152
;LAYER:0
M107
G0 F12000 X104.924 Y63.052 Z0.400
;TYPE:SKIRT
G1 F1800 X104.924 Y241.948 E17.85032
G1 X200.076 Y241.948 E27.34462
G1 X200.076 Y63.052 E45.19494
G1 X104.924 Y63.052 E54.68924
G0 F12000 X104.324 Y62.452
G1 F1800 X104.324 Y242.548 E72.65929
G1 X200.676 Y242.548 E82.27333
G1 X200.676 Y62.452 E100.24339
G1 X104.324 Y62.452 E109.85743
G0 F12000 X103.724 Y61.852
G1 F1800 X103.724 Y243.148 E127.94722
G1 X201.276 Y243.148 E137.68099
G1 X201.276 Y61.852 E155.77078
G1 X103.724 Y61.852 E165.50456
G0 F12000 X103.124 Y61.252
G1 F1800 X103.124 Y243.748 E183.71409
G1 X201.876 Y243.748 E193.56760
G1 X201.876 Y61.252 E211.77712
G1 X103.124 Y61.252 E221.63064
G0 F12000 X102.524 Y60.652
G1 F1800 X102.524 Y244.348 E239.95990
G1 X202.476 Y244.348 E249.93315
G1 X202.476 Y60.652 E268.26241
G1 X102.524 Y60.652 E278.23566
G0 F12000 X101.924 Y60.052
G1 F1800 X101.924 Y244.948 E296.68466
G1 X203.076 Y244.948 E306.77765
G1 X203.076 Y60.052 E325.22665
G1 X101.924 Y60.052 E335.31963
G0 F12000 X101.324 Y59.452
G1 F1800 X101.324 Y245.548 E353.88837
G1 X203.676 Y245.548 E364.10109
G1 X203.676 Y59.452 E382.66983
G1 X101.324 Y59.452 E392.88255
G0 F12000 X100.724 Y58.852
G1 F1800 X100.724 Y246.148 E411.57102
G1 X204.276 Y246.148 E421.90348
G1 X204.276 Y58.852 E440.59195
G1 X100.724 Y58.852 E450.92441
G0 F12000 X100.124 Y58.252
G1 F1800 X100.124 Y246.748 E469.73262
G1 X204.876 Y246.748 E480.18482
G1 X204.876 Y58.252 E498.99303
G1 X100.124 Y58.252 E509.44522
G0 F12000 X99.524 Y57.652
G1 F1800 X99.524 Y247.348 E528.37317
G1 X205.476 Y247.348 E538.94510
G1 X205.476 Y57.652 E557.87304
G1 X99.524 Y57.652 E568.44498
G0 F12000 X96.384 Y54.512
G1 F1800 X208.616 Y54.512 E579.64353
G1 X208.616 Y250.488 E599.19810
G1 X96.384 Y250.488 E610.39665
G1 X96.384 Y54.512 E629.95122
G0 F12000 X95.784 Y53.912
G1 F1800 X209.216 Y53.912 E641.26951
G1 X209.216 Y251.088 E660.94381
G1 X95.784 Y251.088 E672.26210
G1 X95.784 Y53.912 E691.93640
G0 F12000 X95.184 Y53.312
G1 F1800 X209.816 Y53.312 E703.37443
G1 X209.816 Y251.688 E723.16846
G1 X95.184 Y251.688 E734.60649
G1 X95.184 Y53.312 E754.40053
G0 F12000 X94.584 Y52.712
G1 F1800 X210.416 Y52.712 E765.95829
G1 X210.416 Y252.288 E785.87207
G1 X94.584 Y252.288 E797.42983
G1 X94.584 Y52.712 E817.34361
G0 F12000 X93.984 Y52.112
G1 F1800 X211.016 Y52.112 E829.02111
G1 X211.016 Y252.888 E849.05462
G1 X93.984 Y252.888 E860.73212
G1 X93.984 Y52.112 E880.76563
G0 F12000 X93.384 Y51.512
G1 F1800 X211.616 Y51.512 E892.56286
G1 X211.616 Y253.488 E912.71611
G1 X93.384 Y253.488 E924.51335
G1 X93.384 Y51.512 E944.66660
G0 F12000 X92.784 Y50.912
G1 F1800 X212.216 Y50.912 E956.58357
G1 X212.216 Y254.088 E976.85655
G1 X92.784 Y254.088 E988.77353
G1 X92.784 Y50.912 E1009.04651
G0 F12000 X92.184 Y50.312
G1 F1800 X212.816 Y50.312 E1021.08322
G1 X212.816 Y254.688 E1041.47594
G1 X92.184 Y254.688 E1053.51265
G1 X92.184 Y50.312 E1073.90537
G0 F12000 X91.584 Y49.712
G1 F1800 X213.416 Y49.712 E1086.06182
G1 X213.416 Y255.288 E1106.57427
G1 X91.584 Y255.288 E1118.73072
G1 X91.584 Y49.712 E1139.24317
G0 F12000 X90.984 Y49.112
G1 F1800 X214.016 Y49.112 E1151.51936
G1 X214.016 Y255.888 E1172.15155
G1 X90.984 Y255.888 E1184.42773
G1 X90.984 Y49.112 E1205.05993
G1 F2100 E1204.65993
G0 F12000 X97.584 Y55.712
;TYPE:WALL-INNER
G1 F2100 E1205.05993
G1 F1800 X207.416 Y55.712 E1216.01901
G1 X207.416 Y249.288 E1235.33410
G1 X97.584 Y249.288 E1246.29318
G1 X97.584 Y55.712 E1265.60827
G0 F12000 X98.324 Y56.452
G1 F1800 X98.324 Y248.548 E1284.77569
G1 X206.676 Y248.548 E1295.58710
G1 X206.676 Y56.452 E1314.75451
G1 X98.324 Y56.452 E1325.56592
G0 F12000 X98.924 Y57.052
;TYPE:WALL-OUTER
G1 F1800 X98.924 Y247.948 E1344.61360
G1 X206.076 Y247.948 E1355.30527
G1 X206.076 Y57.052 E1374.35295
G1 X98.924 Y57.052 E1385.04462
G1 F2100 E1384.64462
G0 F12000 X96.984 Y55.112
G1 F2100 E1385.04462
G1 F1800 X208.016 Y55.112 E1396.12344
G1 X208.016 Y249.888 E1415.55827
G1 X96.984 Y249.888 E1426.63708
G1 X96.984 Y55.112 E1446.07191
G0 F12000 X97.800 Y55.922
;TYPE:SKIN
G1 F1800 X97.800 Y249.078 E1465.34510
G0 F12000 X98.400 Y249.078
G1 F1800 X98.700 Y248.758 E1465.37705
G1 X99.300 Y249.078 E1465.40894
G1 X99.900 Y248.758 E1465.44083
G1 X100.500 Y249.078 E1465.47272
G1 X101.100 Y248.758 E1465.50460
G1 X101.700 Y249.078 E1465.53649
G1 X102.300 Y248.758 E1465.56838
G1 X102.900 Y249.078 E1465.60027
G1 X103.500 Y248.758 E1465.63216
G1 X104.100 Y249.078 E1465.66405
G1 X104.700 Y248.758 E1465.69594
G1 X105.300 Y249.078 E1465.72783
G1 X105.900 Y248.758 E1465.75972
G1 X106.500 Y249.078 E1465.79161
G1 X107.100 Y248.758 E1465.82350
G1 X107.700 Y249.078 E1465.85539
G1 X108.300 Y248.758 E1465.88728
G1 X108.900 Y249.078 E1465.91917
G1 X109.500 Y248.758 E1465.95106
G1 X110.100 Y249.078 E1465.98295
G1 X110.700 Y248.758 E1466.01484
G1 X111.300 Y249.078 E1466.04673
G1 X111.900 Y248.758 E1466.07862
G1 X112.500 Y249.078 E1466.11051
G1 X113.100 Y248.758 E1466.14240
G1 X113.700 Y249.078 E1466.17429
G1 X114.300 Y248.758 E1466.20618
G1 X114.900 Y249.078 E1466.23807
G1 X115.500 Y248.758 E1466.26996
G1 X116.100 Y249.078 E1466.30185
G1 X116.700 Y248.758 E1466.33374
G1 X117.300 Y249.078 E1466.36563
G1 X117.900 Y248.758 E1466.39752
G1 X118.500 Y249.078 E1466.42941
G1 X119.100 Y248.758 E1466.46130
G1 X119.700 Y249.078 E1466.49319
G1 X120.300 Y248.758 E1466.52508
G1 X120.900 Y249.078 E1466.55697
G1 X121.500 Y248.758 E1466.58886
G1 X122.100 Y249.078 E1466.62075
G1 X122.700 Y248.758 E1466.65264
G1 X123.300 Y249.078 E1466.68453
G1 X123.900 Y248.758 E1466.71642
G1 X124.500 Y249.078 E1466.74831
G1 X125.100 Y248.758 E1466.78020
G1 X125.700 Y249.078 E1466.81209
G1 X126.300 Y248.758 E1466.84398
G1 X126.900 Y249.078 E1466.87587
G1 X127.500 Y248.758 E1466.90776
G1 X128.100 Y249.078 E1466.93965
G1 X128.700 Y248.758 E1466.97154
G1 X129.300 Y249.078 E1467.00343
G1 X129.900 Y248.758 E1467.03532
G1 X130.500 Y249.078 E1467.06721
G1 X131.100 Y248.758 E1467.09910
G1 X131.700 Y249.078 E1467.13099
G1 X132.300 Y248.758 E1467.16288
G1 X132.900 Y249.078 E1467.19477
G1 X133.500 Y248.758 E1467.22666
G1 X134.100 Y249.078 E1467.25854
G1 X134.700 Y248.758 E1467.29043
G1 X135.300 Y249.078 E1467.32232
G1 X135.900 Y248.758 E1467.35421
G1 X136.500 Y249.078 E1467.38610
G1 X137.100 Y248.758 E1467.41799
G1 X137.700 Y249.078 E1467.44988
G1 X138.300 Y248.758 E1467.48177
G1 X138.900 Y249.078 E1467.51366
G1 X139.500 Y248.758 E1467.54555
G1 X140.100 Y249.078 E1467.57744
G1 X140.700 Y248.758 E1467.60933
G1 X141.300 Y249.078 E1467.64122
G1 X141.900 Y248.758 E1467.67311
G1 X142.500 Y249.078 E1467.70500
G1 X143.100 Y248.758 E1467.73689
G1 X143.700 Y249.078 E1467.76878
G1 X144.300 Y248.758 E1467.80067
G1 X144.900 Y249.078 E1467.83256
G1 X145.500 Y248.758 E1467.86445
G1 X146.100 Y249.078 E1467.89634
G1 X146.700 Y248.758 E1467.92823
G1 X147.300 Y249.078 E1467.96012
G1 X147.900 Y248.758 E1467.99201
G1 X148.500 Y249.078 E1468.02390
G1 X149.100 Y248.758 E1468.05579
G1 X149.700 Y249.078 E1468.08768
G1 X150.300 Y248.758 E1468.11957
G1 X150.900 Y249.078 E1468.15146
G1 X151.500 Y248.758 E1468.18335
G1 X152.100 Y249.078 E1468.21524
G1 X152.700 Y248.758 E1468.24713
G1 X153.300 Y249.078 E1468.27902
G1 X153.900 Y248.758 E1468.31091
G1 X154.500 Y249.078 E1468.34280
G1 X155.100 Y248.758 E1468.37469
G1 X155.700 Y249.078 E1468.40658
G1 X156.300 Y248.758 E1468.43847
G1 X156.900 Y249.078 E1468.47036
G1 X157.500 Y248.758 E1468.50225
G1 X158.100 Y249.078 E1468.53414
G1 X158.700 Y248.758 E1468.56603
G1 X159.300 Y249.078 E1468.59792
G1 X159.900 Y248.758 E1468.62981
G1 X160.500 Y249.078 E1468.66170
G1 X161.100 Y248.758 E1468.69359
G1 X161.700 Y249.078 E1468.72548
G1 X162.300 Y248.758 E1468.75737
G1 X162.900 Y249.078 E1468.78926
G1 X163.500 Y248.758 E1468.82115
G1 X164.100 Y249.078 E1468.85304
G1 X164.700 Y248.758 E1468.88493
G1 X165.300 Y249.078 E1468.91682
G1 X165.900 Y248.758 E1468.94871
G1 X166.500 Y249.078 E1468.98060
G1 X167.100 Y248.758 E1469.01248
G1 X167.700 Y249.078 E1469.04437
G1 X168.300 Y248.758 E1469.07626
G1 X168.900 Y249.078 E1469.10815
G1 X169.500 Y248.758 E1469.14004
G1 X170.100 Y249.078 E1469.17193
G1 X170.700 Y248.758 E1469.20382
G1 X171.300 Y249.078 E1469.23571
G1 X171.900 Y248.758 E1469.26760
G1 X172.500 Y249.078 E1469.29949
G1 X173.100 Y248.758 E1469.33138
G1 X173.700 Y249.078 E1469.36327
G1 X174.300 Y248.758 E1469.39516
G1 X174.900 Y249.078 E1469.42705
G1 X175.500 Y248.758 E1469.45894
G1 X176.100 Y249.078 E1469.49083
G1 X176.700 Y248.758 E1469.52272
G1 X177.300 Y249.078 E1469.55461
G1 X177.900 Y248.758 E1469.58650
G1 X178.500 Y249.078 E1469.61839
G1 X179.100 Y248.758 E1469.65028
G1 X179.700 Y249.078 E1469.68217
G1 X180.300 Y248.758 E1469.71406
G1 X180.900 Y249.078 E1469.74595
G1 X181.500 Y248.758 E1469.77784
G1 X182.100 Y249.078 E1469.80973
G1 X182.700 Y248.758 E1469.84162
G1 X183.300 Y249.078 E1469.87351
G1 X183.900 Y248.758 E1469.90540
G1 X184.500 Y249.078 E1469.93729
G1 X185.100 Y248.758 E1469.96918
G1 X185.700 Y249.078 E1470.00107
G1 X186.300 Y248.758 E1470.03296
G1 X186.900 Y249.078 E1470.06485
G1 X187.500 Y248.758 E1470.09674
G1 X188.100 Y249.078 E1470.12863
G1 X188.700 Y248.758 E1470.16052
G1 X189.300 Y249.078 E1470.19241
G1 X189.900 Y248.758 E1470.22430
G1 X190.500 Y249.078 E1470.25619
G1 X191.100 Y248.758 E1470.28808
G1 X191.700 Y249.078 E1470.31997
G1 X192.300 Y248.758 E1470.35186
G1 X192.900 Y249.078 E1470.38375
G1 X193.500 Y248.758 E1470.41564
G1 X194.100 Y249.078 E1470.44753
G1 X194.700 Y248.758 E1470.47942
G1 X195.300 Y249.078 E1470.51131
G1 X195.900 Y248.758 E1470.54320
G1 X196.500 Y249.078 E1470.57509
G1 X197.100 Y248.758 E1470.60698
G1 X197.700 Y249.078 E1470.63887
G1 X198.300 Y248.758 E1470.67076
G1 X198.900 Y249.078 E1470.70265
G1 X199.500 Y248.758 E1470.73454
G1 X200.100 Y249.078 E1470.76642
G1 X200.700 Y248.758 E1470.79831
G1 X201.300 Y249.078 E1470.83020
G1 X201.900 Y248.758 E1470.86209
G1 X202.500 Y249.078 E1470.89398
G1 X203.100 Y248.758 E1470.92587
G1 X203.700 Y249.078 E1470.95776
G1 X204.300 Y248.758 E1470.98965
G1 X204.900 Y249.078 E1471.02154
G1 X205.500 Y248.758 E1471.05343
G1 X206.100 Y249.078 E1471.08532
G1 X206.400 Y248.758 E1471.12909
G0 F12000 X207.000 Y249.078
G1 F1800 X207.000 Y55.922 E1490.40227
G0 F12000 X206.400 Y55.922
G1 F1800 X206.100 Y56.242 E1490.43422
G1 X205.500 Y55.922 E1490.46611
G1 X204.900 Y56.242 E1490.49800
G1 X204.300 Y55.922 E1490.52989
G1 X203.700 Y56.242 E1490.56178
G1 X203.100 Y55.922 E1490.59367
G1 X202.500 Y56.242 E1490.62556
G1 X201.900 Y55.922 E1490.65745
G1 X201.300 Y56.242 E1490.68934
G1 X200.700 Y55.922 E1490.72123
G1 X200.100 Y56.242 E1490.75312
G1 X199.500 Y55.922 E1490.78501
G1 X198.900 Y56.242 E1490.81690
G1 X198.300 Y55.922 E1490.84879
G1 X197.700 Y56.242 E1490.88068
G1 X197.100 Y55.922 E1490.91257
G1 X196.500 Y56.242 E1490.94446
G1 X195.900 Y55.922 E1490.97635
G1 X195.300 Y56.242 E1491.00824
G1 X194.700 Y55.922 E1491.04013
G1 X194.100 Y56.242 E1491.07202
G1 X193.500 Y55.922 E1491.10391
G1 X192.900 Y56.242 E1491.13580
G1 X192.300 Y55.922 E1491.16769
G1 X191.700 Y56.242 E1491.19958
G1 X191.100 Y55.922 E1491.23147
G1 X190.500 Y56.242 E1491.26336
G1 X189.900 Y55.922 E1491.29525
G1 X189.300 Y56.242 E1491.32714
G1 X188.700 Y55.922 E1491.35903
G1 X188.100 Y56.242 E1491.39092
G1 X187.500 Y55.922 E1491.42281
G1 X186.900 Y56.242 E1491.45470
G1 X186.300 Y55.922 E1491.48659
G1 X185.700 Y56.242 E1491.51848
G1 X185.100 Y55.922 E1491.55037
G1 X184.500 Y56.242 E1491.58226
G1 X183.900 Y55.922 E1491.61415
G1 X183.300 Y56.242 E1491.64604
G1 X182.700 Y55.922 E1491.67793
G1 X182.100 Y56.242 E1491.70982
G1 X181.500 Y55.922 E1491.74171
G1 X180.900 Y56.242 E1491.77360
G1 X180.300 Y55.922 E1491.80549
G1 X179.700 Y56.242 E1491.83738
G1 X179.100 Y55.922 E1491.86927
G1 X178.500 Y56.242 E1491.90116
G1 X177.900 Y55.922 E1491.93305
G1 X177.300 Y56.242 E1491.96494
G1 X176.700 Y55.922 E1491.99683
G1 X176.100 Y56.242 E1492.02871
G1 X175.500 Y55.922 E1492.06060
G1 X174.900 Y56.242 E1492.09249
G1 X174.300 Y55.922 E1492.12438
G1 X173.700 Y56.242 E1492.15627
G1 X173.100 Y55.922 E1492.18816
G1 X172.500 Y56.242 E1492.22005
G1 X171.900 Y55.922 E1492.25194
G1 X171.300 Y56.242 E1492.28383
G1 X170.700 Y55.922 E1492.31572
G1 X170.100 Y56.242 E1492.34761
G1 X169.500 Y55.922 E1492.37950
G1 X168.900 Y56.242 E1492.41139
G1 X168.300 Y55.922 E1492.44328
G1 X167.700 Y56.242 E1492.47517
G1 X167.100 Y55.922 E1492.50706
G1 X166.500 Y56.242 E1492.53895
G1 X165.900 Y55.922 E1492.57084
G1 X165.300 Y56.242 E1492.60273
G1 X164.700 Y55.922 E1492.63462
G1 X164.100 Y56.242 E1492.66651
G1 X163.500 Y55.922 E1492.69840
G1 X162.900 Y56.242 E1492.73029
G1 X162.300 Y55.922 E1492.76218
G1 X161.700 Y56.242 E1492.79407
G1 X161.100 Y55.922 E1492.82596
G1 X160.500 Y56.242 E1492.85785
G1 X159.900 Y55.922 E1492.88974
G1 X159.300 Y56.242 E1492.92163
G1 X158.700 Y55.922 E1492.95352
G1 X158.100 Y56.242 E1492.98541
G1 X157.500 Y55.922 E1493.01730
G1 X156.900 Y56.242 E1493.04919
G1 X156.300 Y55.922 E1493.08108
G1 X155.700 Y56.242 E1493.11297
G1 X155.100 Y55.922 E1493.14486
G1 X154.500 Y56.242 E1493.17675
G1 X153.900 Y55.922 E1493.20864
G1 X153.300 Y56.242 E1493.24053
G1 X152.700 Y55.922 E1493.27242
G1 X152.100 Y56.242 E1493.30431
G1 X151.500 Y55.922 E1493.33620
G1 X150.900 Y56.242 E1493.36809
G1 X150.300 Y55.922 E1493.39998
G1 X149.700 Y56.242 E1493.43187
G1 X149.100 Y55.922 E1493.46376
G1 X148.500 Y56.242 E1493.49565
G1 X147.900 Y55.922 E1493.52754
G1 X147.300 Y56.242 E1493.55943
G1 X146.700 Y55.922 E1493.59132
G1 X146.100 Y56.242 E1493.62321
G1 X145.500 Y55.922 E1493.65510
G1 X144.900 Y56.242 E1493.68699
G1 X144.300 Y55.922 E1493.71888
G1 X143.700 Y56.242 E1493.75077
G1 X143.100 Y55.922 E1493.78265
G1 X142.500 Y56.242 E1493.81454
G1 X141.900 Y55.922 E1493.84643
G1 X141.300 Y56.242 E1493.87832
G1 X140.700 Y55.922 E1493.91021
G1 X140.100 Y56.242 E1493.94210
G1 X139.500 Y55.922 E1493.97399
G1 X138.900 Y56.242 E1494.00588
G1 X138.300 Y55.922 E1494.03777
G1 X137.700 Y56.242 E1494.06966
G1 X137.100 Y55.922 E1494.10155
G1 X136.500 Y56.242 E1494.13344
G1 X135.900 Y55.922 E1494.16533
G1 X135.300 Y56.242 E1494.19722
G1 X134.700 Y55.922 E1494.22911
G1 X134.100 Y56.242 E1494.26100
G1 X133.500 Y55.922 E1494.29289
G1 X132.900 Y56.242 E1494.32478
G1 X132.300 Y55.922 E1494.35667
G1 X131.700 Y56.242 E1494.38856
G1 X131.100 Y55.922 E1494.42045
G1 X130.500 Y56.242 E1494.45234
G1 X129.900 Y55.922 E1494.48423
G1 X129.300 Y56.242 E1494.51612
G1 X128.700 Y55.922 E1494.54801
G1 X128.100 Y56.242 E1494.57990
G1 X127.500 Y55.922 E1494.61179
G1 X126.900 Y56.242 E1494.64368
G1 X126.300 Y55.922 E1494.67557
G1 X125.700 Y56.242 E1494.70746
G1 X125.100 Y55.922 E1494.73935
G1 X124.500 Y56.242 E1494.77124
G1 X123.900 Y55.922 E1494.80313
G1 X123.300 Y56.242 E1494.83502
G1 X122.700 Y55.922 E1494.86691
G1 X122.100 Y56.242 E1494.89880
G1 X121.500 Y55.922 E1494.93069
G1 X120.900 Y56.242 E1494.96258
G1 X120.300 Y55.922 E1494.99447
G1 X119.700 Y56.242 E1495.02636
G1 X119.100 Y55.922 E1495.05825
G1 X118.500 Y56.242 E1495.09014
G1 X117.900 Y55.922 E1495.12203
G1 X117.300 Y56.242 E1495.15392
G1 X116.700 Y55.922 E1495.18581
G1 X116.100 Y56.242 E1495.21770
G1 X115.500 Y55.922 E1495.24959
G1 X114.900 Y56.242 E1495.28148
G1 X114.300 Y55.922 E1495.31337
G1 X113.700 Y56.242 E1495.34526
G1 X113.100 Y55.922 E1495.37715
G1 X112.500 Y56.242 E1495.40904
G1 X111.900 Y55.922 E1495.44093
G1 X111.300 Y56.242 E1495.47282
G1 X110.700 Y55.922 E1495.50471
G1 X110.100 Y56.242 E1495.53659
G1 X109.500 Y55.922 E1495.56848
G1 X108.900 Y56.242 E1495.60037
G1 X108.300 Y55.922 E1495.63226
G1 X107.700 Y56.242 E1495.66415
G1 X107.100 Y55.922 E1495.69604
G1 X106.500 Y56.242 E1495.72793
G1 X105.900 Y55.922 E1495.75982
G1 X105.300 Y56.242 E1495.79171
G1 X104.700 Y55.922 E1495.82360
G1 X104.100 Y56.242 E1495.85549
G1 X103.500 Y55.922 E1495.88738
G1 X102.900 Y56.242 E1495.91927
G1 X102.300 Y55.922 E1495.95116
G1 X101.700 Y56.242 E1495.98305
G1 X101.100 Y55.922 E1496.01494
G1 X100.500 Y56.242 E1496.04683
G1 X99.900 Y55.922 E1496.07872
G1 X99.300 Y56.242 E1496.11061
G1 X98.700 Y55.922 E1496.14250
G1 X98.400 Y56.242 E1496.18627
;LAYER:1
M106 S20
G0 F12000 X98.324 Y56.452 Z0.800
;TYPE:WALL-INNER
G1 F2040 X98.324 Y248.548 E1515.35369
G1 X206.676 Y248.548 E1526.16509
G1 X206.676 Y56.452 E1545.33251
G1 X98.324 Y56.452 E1556.14391
G0 F12000 X97.584 Y55.712
G1 F2040 X207.416 Y55.712 E1567.10300
G1 X207.416 Y249.288 E1586.41809
G1 X97.584 Y249.288 E1597.37717
G1 X97.584 Y55.712 E1616.69226
G0 F12000 X96.984 Y55.112
;TYPE:WALL-OUTER
G1 F2040 X208.016 Y55.112 E1627.77108
G1 X208.016 Y249.888 E1647.20591
G1 X96.984 Y249.888 E1658.28473
G1 X96.984 Y55.112 E1677.71955
G1 F2100 E1677.31955
G0 F12000 X98.924 Y57.052
G1 F2100 E1677.71955
G1 F2040 X98.924 Y247.948 E1696.76723
G1 X206.076 Y247.948 E1707.45890
G1 X206.076 Y57.052 E1726.50658
G1 X98.924 Y57.052 E1737.19825
G0 F12000 X98.113 Y57.000
;TYPE:SKIN
G1 F2040 X97.793 Y57.300 E1737.23020
G1 X98.113 Y57.900 E1737.26209
G1 X97.793 Y58.500 E1737.29398
G1 X98.113 Y59.100 E1737.32587
G1 X97.793 Y59.400 E1737.36964
G1 F2100 E1736.96964
G0 F12000 X97.793 Y56.400
G1 F2100 E1737.36964
G1 F2040 X98.113 Y56.400 E1737.40157
G1 F2100 E1737.00157
G0 F12000 X98.113 Y60.000
G1 F2100 E1737.40157
G1 F2040 X97.793 Y60.300 E1737.43352
G1 X98.113 Y60.900 E1737.46541
G1 X97.793 Y61.500 E1737.49730
G1 X98.113 Y62.100 E1737.52919
G1 X97.793 Y62.700 E1737.56108
G1 X98.113 Y63.300 E1737.59297
G1 X97.793 Y63.900 E1737.62486
G1 X98.113 Y64.500 E1737.65675
G1 X97.793 Y65.100 E1737.68864
G1 X98.113 Y65.700 E1737.72053
G1 X97.793 Y66.300 E1737.75242
G1 X98.113 Y66.900 E1737.78431
G1 X97.793 Y67.500 E1737.81620
G1 X98.113 Y68.100 E1737.84809
G1 X97.793 Y68.700 E1737.87998
G1 X98.113 Y69.300 E1737.91187
G1 X97.793 Y69.900 E1737.94376
G1 X98.113 Y70.500 E1737.97565
G1 X97.793 Y71.100 E1738.00754
G1 X98.113 Y71.700 E1738.03943
G1 X97.793 Y72.300 E1738.07132
G1 X98.113 Y72.900 E1738.10321
G1 X97.793 Y73.500 E1738.13510
G1 X98.113 Y74.100 E1738.16699
G1 X97.793 Y74.700 E1738.19888
G1 X98.113 Y75.300 E1738.23077
G1 X97.793 Y75.900 E1738.26266
G1 X98.113 Y76.500 E1738.29455
G1 X97.793 Y77.100 E1738.32643
G1 X98.113 Y77.700 E1738.35832
G1 X97.793 Y78.300 E1738.39021
G1 X98.113 Y78.900 E1738.42210
G1 X97.793 Y79.500 E1738.45399
G1 X98.113 Y80.100 E1738.48588
G1 X97.793 Y80.700 E1738.51777
G1 X98.113 Y81.300 E1738.54966
G1 X97.793 Y81.900 E1738.58155
G1 X98.113 Y82.500 E1738.61344
G1 X97.793 Y83.100 E1738.64533
G1 X98.113 Y83.700 E1738.67722
G1 X97.793 Y84.300 E1738.70911
G1 X98.113 Y84.900 E1738.74100
G1 X97.793 Y85.500 E1738.77289
G1 X98.113 Y86.100 E1738.80478
G1 X97.793 Y86.700 E1738.83667
G1 X98.113 Y87.300 E1738.86856
G1 X97.793 Y87.900 E1738.90045
G1 X98.113 Y88.500 E1738.93234
G1 X97.793 Y89.100 E1738.96423
G1 X98.113 Y89.700 E1738.99612
G1 X97.793 Y90.300 E1739.02801
G1 X98.113 Y90.900 E1739.05990
G1 X97.793 Y91.500 E1739.09179
G1 X98.113 Y92.100 E1739.12368
G1 X97.793 Y92.700 E1739.15557
G1 X98.113 Y93.300 E1739.18746
G1 X97.793 Y93.900 E1739.21935
G1 X98.113 Y94.500 E1739.25124
G1 X97.793 Y95.100 E1739.28313
G1 X98.113 Y95.700 E1739.31502
G1 X97.793 Y96.300 E1739.34691
G1 X98.113 Y96.900 E1739.37880
G1 X97.793 Y97.500 E1739.41069
G1 X98.113 Y98.100 E1739.44258
G1 X97.793 Y98.700 E1739.47447
G1 X98.113 Y99.300 E1739.50636
G1 X97.793 Y99.900 E1739.53825
G1 X98.113 Y100.500 E1739.57014
G1 X97.793 Y101.100 E1739.60203
G1 X98.113 Y101.700 E1739.63392
G1 X97.793 Y102.300 E1739.66581
G1 X98.113 Y102.900 E1739.69770
G1 X97.793 Y103.500 E1739.72959
G1 X98.113 Y104.100 E1739.76148
G1 X97.793 Y104.700 E1739.79337
G1 X98.113 Y105.300 E1739.82526
G1 X97.793 Y105.900 E1739.85715
G1 X98.113 Y106.500 E1739.88904
G1 X97.793 Y107.100 E1739.92093
G1 X98.113 Y107.700 E1739.95282
G1 X97.793 Y108.300 E1739.98471
G1 X98.113 Y108.900 E1740.01660
G1 X97.793 Y109.500 E1740.04849
G1 X98.113 Y110.100 E1740.08037
G1 X97.793 Y110.700 E1740.11226
G1 X98.113 Y111.300 E1740.14415
G1 X97.793 Y111.900 E1740.17604
G1 X98.113 Y112.500 E1740.20793
G1 X97.793 Y113.100 E1740.23982
G1 X98.113 Y113.700 E1740.27171
G1 X97.793 Y114.300 E1740.30360
G1 X98.113 Y114.900 E1740.33549
G1 X97.793 Y115.500 E1740.36738
G1 X98.113 Y116.100 E1740.39927
G1 X97.793 Y116.700 E1740.43116
G1 X98.113 Y117.300 E1740.46305
G1 X97.793 Y117.900 E1740.49494
G1 X98.113 Y118.500 E1740.52683
G1 X97.793 Y119.100 E1740.55872
G1 X98.113 Y119.700 E1740.59061
G1 X97.793 Y120.300 E1740.62250
G1 X98.113 Y120.900 E1740.65439
G1 X97.793 Y121.500 E1740.68628
G1 X98.113 Y122.100 E1740.71817
G1 X97.793 Y122.700 E1740.75006
G1 X98.113 Y123.300 E1740.78195
G1 X97.793 Y123.900 E1740.81384
G1 X98.113 Y124.500 E1740.84573
G1 X97.793 Y125.100 E1740.87762
G1 X98.113 Y125.700 E1740.90951
G1 X97.793 Y126.300 E1740.94140
G1 X98.113 Y126.900 E1740.97329
G1 X97.793 Y127.500 E1741.00518
G1 X98.113 Y128.100 E1741.03707
G1 X97.793 Y128.700 E1741.06896
G1 X98.113 Y129.300 E1741.10085
G1 X97.793 Y129.900 E1741.13274
G1 X98.113 Y130.500 E1741.16463
G1 X97.793 Y131.100 E1741.19652
G1 X98.113 Y131.700 E1741.22841
G1 X97.793 Y132.300 E1741.26030
G1 X98.113 Y132.900 E1741.29219
G1 X97.793 Y133.500 E1741.32408
G1 X98.113 Y134.100 E1741.35597
G1 X97.793 Y134.700 E1741.38786
G1 X98.113 Y135.300 E1741.41975
G1 X97.793 Y135.900 E1741.45164
G1 X98.113 Y136.500 E1741.48353
G1 X97.793 Y137.100 E1741.51542
G1 X98.113 Y137.700 E1741.54731
G1 X97.793 Y138.300 E1741.57920
G1 X98.113 Y138.900 E1741.61109
G1 X97.793 Y139.500 E1741.64298
G1 X98.113 Y140.100 E1741.67487
G1 X97.793 Y140.700 E1741.70676
G1 X98.113 Y141.300 E1741.73865
G1 X97.793 Y141.900 E1741.77054
G1 X98.113 Y142.500 E1741.80243
G1 X97.793 Y143.100 E1741.83431
G1 X98.113 Y143.700 E1741.86620
G1 X97.793 Y144.300 E1741.89809
G1 X98.113 Y144.900 E1741.92998
G1 X97.793 Y145.500 E1741.96187
G1 X98.113 Y146.100 E1741.99376
G1 X97.793 Y146.700 E1742.02565
G1 X98.113 Y147.300 E1742.05754
G1 X97.793 Y147.900 E1742.08943
G1 X98.113 Y148.500 E1742.12132
G1 X97.793 Y149.100 E1742.15321
G1 X98.113 Y149.700 E1742.18510
G1 X97.793 Y150.300 E1742.21699
G1 X98.113 Y150.900 E1742.24888
G1 X97.793 Y151.500 E1742.28077
G1 X98.113 Y152.100 E1742.31266
G1 X97.793 Y152.700 E1742.34455
G1 X98.113 Y153.300 E1742.37644
G1 X97.793 Y153.900 E1742.40833
G1 X98.113 Y154.500 E1742.44022
G1 X97.793 Y155.100 E1742.47211
G1 X98.113 Y155.700 E1742.50400
G1 X97.793 Y156.300 E1742.53589
G1 X98.113 Y156.900 E1742.56778
G1 X97.793 Y157.500 E1742.59967
G1 X98.113 Y158.100 E1742.63156
G1 X97.793 Y158.700 E1742.66345
G1 X98.113 Y159.300 E1742.69534
G1 X97.793 Y159.900 E1742.72723
G1 X98.113 Y160.500 E1742.75912
G1 X97.793 Y161.100 E1742.79101
G1 X98.113 Y161.700 E1742.82290
G1 X97.793 Y162.300 E1742.85479
G1 X98.113 Y162.900 E1742.88668
G1 X97.793 Y163.500 E1742.91857
G1 X98.113 Y164.100 E1742.95046
G1 X97.793 Y164.700 E1742.98235
G1 X98.113 Y165.300 E1743.01424
G1 X97.793 Y165.900 E1743.04613
G1 X98.113 Y166.500 E1743.07802
G1 X97.793 Y167.100 E1743.10991
G1 X98.113 Y167.700 E1743.14180
G1 X97.793 Y168.300 E1743.17369
G1 X98.113 Y168.900 E1743.20558
G1 X97.793 Y169.500 E1743.23747
G1 X98.113 Y170.100 E1743.26936
G1 X97.793 Y170.700 E1743.30125
G1 X98.113 Y171.300 E1743.33314
G1 X97.793 Y171.900 E1743.36503
G1 X98.113 Y172.500 E1743.39692
G1 X97.793 Y173.100 E1743.42881
G1 X98.113 Y173.700 E1743.46070
G1 X97.793 Y174.300 E1743.49259
G1 X98.113 Y174.900 E1743.52448
G1 X97.793 Y175.500 E1743.55637
G1 X98.113 Y176.100 E1743.58825
G1 X97.793 Y176.700 E1743.62014
G1 X98.113 Y177.300 E1743.65203
G1 X97.793 Y177.900 E1743.68392
G1 X98.113 Y178.500 E1743.71581
G1 X97.793 Y179.100 E1743.74770
G1 X98.113 Y179.700 E1743.77959
G1 X97.793 Y180.300 E1743.81148
G1 X98.113 Y180.900 E1743.84337
G1 X97.793 Y181.500 E1743.87526
G1 X98.113 Y182.100 E1743.90715
G1 X97.793 Y182.700 E1743.93904
G1 X98.113 Y183.300 E1743.97093
G1 X97.793 Y183.900 E1744.00282
G1 X98.113 Y184.500 E1744.03471
G1 X97.793 Y185.100 E1744.06660
G1 X98.113 Y185.700 E1744.09849
G1 X97.793 Y186.300 E1744.13038
G1 X98.113 Y186.900 E1744.16227
G1 X97.793 Y187.500 E1744.19416
G1 X98.113 Y188.100 E1744.22605
G1 X97.793 Y188.700 E1744.25794
G1 X98.113 Y189.300 E1744.28983
G1 X97.793 Y189.900 E1744.32172
G1 X98.113 Y190.500 E1744.35361
G1 X97.793 Y191.100 E1744.38550
G1 X98.113 Y191.700 E1744.41739
G1 X97.793 Y192.300 E1744.44928
G1 X98.113 Y192.900 E1744.48117
G1 X97.793 Y193.500 E1744.51306
G1 X98.113 Y194.100 E1744.54495
G1 X97.793 Y194.700 E1744.57684
G1 X98.113 Y195.300 E1744.60873
G1 X97.793 Y195.900 E1744.64062
G1 X98.113 Y196.500 E1744.67251
G1 X97.793 Y197.100 E1744.70440
G1 X98.113 Y197.700 E1744.73629
G1 X97.793 Y198.300 E1744.76818
G1 X98.113 Y198.900 E1744.80007
G1 X97.793 Y199.500 E1744.83196
G1 X98.113 Y200.100 E1744.86385
G1 X97.793 Y200.700 E1744.89574
G1 X98.113 Y201.300 E1744.92763
G1 X97.793 Y201.900 E1744.95952
G1 X98.113 Y202.500 E1744.99141
G1 X97.793 Y203.100 E1745.02330
G1 X98.113 Y203.700 E1745.05519
G1 X97.793 Y204.300 E1745.08708
G1 X98.113 Y204.900 E1745.11897
G1 X97.793 Y205.500 E1745.15086
G1 X98.113 Y206.100 E1745.18275
G1 X97.793 Y206.700 E1745.21464
G1 X98.113 Y207.300 E1745.24653
G1 X97.793 Y207.900 E1745.27842
G1 X98.113 Y208.500 E1745.31030
G1 X97.793 Y209.100 E1745.34219
G1 X98.113 Y209.700 E1745.37408
G1 X97.793 Y210.300 E1745.40597
G1 X98.113 Y210.900 E1745.43786
G1 X97.793 Y211.500 E1745.46975
G1 X98.113 Y212.100 E1745.50164
G1 X97.793 Y212.700 E1745.53353
G1 X98.113 Y213.300 E1745.56542
G1 X97.793 Y213.900 E1745.59731
G1 X98.113 Y214.500 E1745.62920
G1 X97.793 Y215.100 E1745.66109
G1 X98.113 Y215.700 E1745.69298
G1 X97.793 Y216.300 E1745.72487
G1 X98.113 Y216.900 E1745.75676
G1 X97.793 Y217.500 E1745.78865
G1 X98.113 Y218.100 E1745.82054
G1 X97.793 Y218.700 E1745.85243
G1 X98.113 Y219.300 E1745.88432
G1 X97.793 Y219.900 E1745.91621
G1 X98.113 Y220.500 E1745.94810
G1 X97.793 Y221.100 E1745.97999
G1 X98.113 Y221.700 E1746.01188
G1 X97.793 Y222.300 E1746.04377
G1 X98.113 Y222.900 E1746.07566
G1 X97.793 Y223.500 E1746.10755
G1 X98.113 Y224.100 E1746.13944
G1 X97.793 Y224.700 E1746.17133
G1 X98.113 Y225.300 E1746.20322
G1 X97.793 Y225.900 E1746.23511
G1 X98.113 Y226.500 E1746.26700
G1 X97.793 Y227.100 E1746.29889
G1 X98.113 Y227.700 E1746.33078
G1 X97.793 Y228.300 E1746.36267
G1 X98.113 Y228.900 E1746.39456
G1 X97.793 Y229.500 E1746.42645
G1 X98.113 Y230.100 E1746.45834
G1 X97.793 Y230.700 E1746.49023
G1 X98.113 Y231.300 E1746.52212
G1 X97.793 Y231.900 E1746.55401
G1 X98.113 Y232.500 E1746.58590
G1 X97.793 Y233.100 E1746.61779
G1 X98.113 Y233.700 E1746.64968
G1 X97.793 Y234.300 E1746.68157
G1 X98.113 Y234.900 E1746.71346
G1 X97.793 Y235.500 E1746.74535
G1 X98.113 Y236.100 E1746.77724
G1 X97.793 Y236.700 E1746.80913
G1 X98.113 Y237.300 E1746.84102
G1 X97.793 Y237.900 E1746.87291
G1 X98.113 Y238.500 E1746.90480
G1 X97.793 Y239.100 E1746.93669
G1 X98.113 Y239.700 E1746.96858
G1 X97.793 Y240.300 E1747.00047
G1 X98.113 Y240.900 E1747.03236
G1 X97.793 Y241.500 E1747.06424
G1 X98.113 Y242.100 E1747.09613
G1 X97.793 Y242.700 E1747.12802
G1 X98.113 Y243.300 E1747.15991
G1 X97.793 Y243.900 E1747.19180
G1 X98.113 Y244.500 E1747.22369
G1 X97.793 Y245.100 E1747.25558
G1 X98.113 Y245.700 E1747.28747
G1 X97.793 Y246.300 E1747.31936
G1 X98.113 Y246.900 E1747.35125
G1 X97.793 Y247.500 E1747.38314
G1 X98.113 Y248.100 E1747.41503
G1 X97.793 Y248.400 E1747.45880
G0 F12000 X97.793 Y249.000
G1 F2040 X207.205 Y249.000 E1758.37597
G0 F12000 X207.205 Y248.400
G1 F2040 X206.885 Y248.100 E1758.40792
G1 X207.205 Y247.500 E1758.43981
G1 X206.885 Y246.900 E1758.47170
G1 X207.205 Y246.300 E1758.50359
G1 X206.885 Y245.700 E1758.53548
G1 X207.205 Y245.100 E1758.56737
G1 X206.885 Y244.500 E1758.59926
G1 X207.205 Y243.900 E1758.63115
G1 X206.885 Y243.300 E1758.66304
G1 X207.205 Y242.700 E1758.69493
G1 X206.885 Y242.100 E1758.72682
G1 X207.205 Y241.500 E1758.75871
G1 X206.885 Y240.900 E1758.79060
G1 X207.205 Y240.300 E1758.82249
G1 X206.885 Y239.700 E1758.85438
G1 X207.205 Y239.100 E1758.88627
G1 X206.885 Y238.500 E1758.91816
G1 X207.205 Y237.900 E1758.95005
G1 X206.885 Y237.300 E1758.98194
G1 X207.205 Y236.700 E1759.01383
G1 X206.885 Y236.100 E1759.04572
G1 X207.205 Y235.500 E1759.07761
G1 X206.885 Y234.900 E1759.10950
G1 X207.205 Y234.300 E1759.14139
G1 X206.885 Y233.700 E1759.17328
G1 X207.205 Y233.100 E1759.20517
G1 X206.885 Y232.500 E1759.23706
G1 X207.205 Y231.900 E1759.26895
G1 X206.885 Y231.300 E1759.30084
G1 X207.205 Y230.700 E1759.33273
G1 X206.885 Y230.100 E1759.36462
G1 X207.205 Y229.500 E1759.39651
G1 X206.885 Y228.900 E1759.42840
G1 X207.205 Y228.300 E1759.46029
G1 X206.885 Y227.700 E1759.49218
G1 X207.205 Y227.100 E1759.52407
G1 X206.885 Y226.500 E1759.55596
G1 X207.205 Y225.900 E1759.58785
G1 X206.885 Y225.300 E1759.61974
G1 X207.205 Y224.700 E1759.65163
G1 X206.885 Y224.100 E1759.68352
G1 X207.205 Y223.500 E1759.71541
G1 X206.885 Y222.900 E1759.74730
G1 X207.205 Y222.300 E1759.77919
G1 X206.885 Y221.700 E1759.81108
G1 X207.205 Y221.100 E1759.84297
G1 X206.885 Y220.500 E1759.87486
G1 X207.205 Y219.900 E1759.90675
G1 X206.885 Y219.300 E1759.93863
G1 X207.205 Y218.700 E1759.97052
G1 X206.885 Y218.100 E1760.00241
G1 X207.205 Y217.500 E1760.03430
G1 X206.885 Y216.900 E1760.06619
G1 X207.205 Y216.300 E1760.09808
G1 X206.885 Y215.700 E1760.12997
G1 X207.205 Y215.100 E1760.16186
G1 X206.885 Y214.500 E1760.19375
G1 X207.205 Y213.900 E1760.22564
G1 X206.885 Y213.300 E1760.25753
G1 X207.205 Y212.700 E1760.28942
G1 X206.885 Y212.100 E1760.32131
G1 X207.205 Y211.500 E1760.35320
G1 X206.885 Y210.900 E1760.38509
G1 X207.205 Y210.300 E1760.41698
G1 X206.885 Y209.700 E1760.44887
G1 X207.205 Y209.100 E1760.48076
G1 X206.885 Y208.500 E1760.51265
G1 X207.205 Y207.900 E1760.54454
G1 X206.885 Y207.300 E1760.57643
G1 X207.205 Y206.700 E1760.60832
G1 X206.885 Y206.100 E1760.64021
G1 X207.205 Y205.500 E1760.67210
G1 X206.885 Y204.900 E1760.70399
G1 X207.205 Y204.300 E1760.73588
G1 X206.885 Y203.700 E1760.76777
G1 X207.205 Y203.100 E1760.79966
G1 X206.885 Y202.500 E1760.83155
G1 X207.205 Y201.900 E1760.86344
G1 X206.885 Y201.300 E1760.89533
G1 X207.205 Y200.700 E1760.92722
G1 X206.885 Y200.100 E1760.95911
G1 X207.205 Y199.500 E1760.99100
G1 X206.885 Y198.900 E1761.02289
G1 X207.205 Y198.300 E1761.05478
G1 X206.885 Y197.700 E1761.08667
G1 X207.205 Y197.100 E1761.11856
G1 X206.885 Y196.500 E1761.15045
G1 X207.205 Y195.900 E1761.18234
G1 X206.885 Y195.300 E1761.21423
G1 X207.205 Y194.700 E1761.24612
G1 X206.885 Y194.100 E1761.27801
G1 X207.205 Y193.500 E1761.30990
G1 X206.885 Y192.900 E1761.34179
G1 X207.205 Y192.300 E1761.37368
G1 X206.885 Y191.700 E1761.40557
G1 X207.205 Y191.100 E1761.43746
G1 X206.885 Y190.500 E1761.46935
G1 X207.205 Y189.900 E1761.50124
G1 X206.885 Y189.300 E1761.53313
G1 X207.205 Y188.700 E1761.56502
G1 X206.885 Y188.100 E1761.59691
G1 X207.205 Y187.500 E1761.62880
G1 X206.885 Y186.900 E1761.66069
G1 X207.205 Y186.300 E1761.69257
G1 X206.885 Y185.700 E1761.72446
G1 X207.205 Y185.100 E1761.75635
G1 X206.885 Y184.500 E1761.78824
G1 X207.205 Y183.900 E1761.82013
G1 X206.885 Y183.300 E1761.85202
G1 X207.205 Y182.700 E1761.88391
G1 X206.885 Y182.100 E1761.91580
G1 X207.205 Y181.500 E1761.94769
G1 X206.885 Y180.900 E1761.97958
G1 X207.205 Y180.300 E1762.01147
G1 X206.885 Y179.700 E1762.04336
G1 X207.205 Y179.100 E1762.07525
G1 X206.885 Y178.500 E1762.10714
G1 X207.205 Y177.900 E1762.13903
G1 X206.885 Y177.300 E1762.17092
G1 X207.205 Y176.700 E1762.20281
G1 X206.885 Y176.100 E1762.23470
G1 X207.205 Y175.500 E1762.26659
G1 X206.885 Y174.900 E1762.29848
G1 X207.205 Y174.300 E1762.33037
G1 X206.885 Y173.700 E1762.36226
G1 X207.205 Y173.100 E1762.39415
G1 X206.885 Y172.500 E1762.42604
G1 X207.205 Y171.900 E1762.45793
G1 X206.885 Y171.300 E1762.48982
G1 X207.205 Y170.700 E1762.52171
G1 X206.885 Y170.100 E1762.55360
G1 X207.205 Y169.500 E1762.58549
G1 X206.885 Y168.900 E1762.61738
G1 X207.205 Y168.300 E1762.64927
G1 X206.885 Y167.700 E1762.68116
G1 X207.205 Y167.100 E1762.71305
G1 X206.885 Y166.500 E1762.74494
G1 X207.205 Y165.900 E1762.77683
G1 X206.885 Y165.300 E1762.80872
G1 X207.205 Y164.700 E1762.84061
G1 X206.885 Y164.100 E1762.87250
G1 X207.205 Y163.500 E1762.90439
G1 X206.885 Y162.900 E1762.93628
G1 X207.205 Y162.300 E1762.96817
G1 X206.885 Y161.700 E1763.00006
G1 X207.205 Y161.100 E1763.03195
G1 X206.885 Y160.500 E1763.06384
G1 X207.205 Y159.900 E1763.09573
G1 X206.885 Y159.300 E1763.12762
G1 X207.205 Y158.700 E1763.15951
G1 X206.885 Y158.100 E1763.19140
G1 X207.205 Y157.500 E1763.22329
G1 X206.885 Y156.900 E1763.25518
G1 X207.205 Y156.300 E1763.28707
G1 X206.885 Y155.700 E1763.31896
G1 X207.205 Y155.100 E1763.35085
G1 X206.885 Y154.500 E1763.38274
G1 X207.205 Y153.900 E1763.41463
G1 X206.885 Y153.300 E1763.44651
G1 X207.205 Y152.700 E1763.47840
G1 X206.885 Y152.100 E1763.51029
G1 X207.205 Y151.500 E1763.54218
G1 X206.885 Y150.900 E1763.57407
G1 X207.205 Y150.300 E1763.60596
G1 X206.885 Y149.700 E1763.63785
G1 X207.205 Y149.100 E1763.66974
G1 X206.885 Y148.500 E1763.70163
G1 X207.205 Y147.900 E1763.73352
G1 X206.885 Y147.300 E1763.76541
G1 X207.205 Y146.700 E1763.79730
G1 X206.885 Y146.100 E1763.82919
G1 X207.205 Y145.500 E1763.86108
G1 X206.885 Y144.900 E1763.89297
G1 X207.205 Y144.300 E1763.92486
G1 X206.885 Y143.700 E1763.95675
G1 X207.205 Y143.100 E1763.98864
G1 X206.885 Y142.500 E1764.02053
G1 X207.205 Y141.900 E1764.05242
G1 X206.885 Y141.300 E1764.08431
G1 X207.205 Y140.700 E1764.11620
G1 X206.885 Y140.100 E1764.14809
G1 X207.205 Y139.500 E1764.17998
G1 X206.885 Y138.900 E1764.21187
G1 X207.205 Y138.300 E1764.24376
G1 X206.885 Y137.700 E1764.27565
G1 X207.205 Y137.100 E1764.30754
G1 X206.885 Y136.500 E1764.33943
G1 X207.205 Y135.900 E1764.37132
G1 X206.885 Y135.300 E1764.40321
G1 X207.205 Y134.700 E1764.43510
G1 X206.885 Y134.100 E1764.46699
G1 X207.205 Y133.500 E1764.49888
G1 X206.885 Y132.900 E1764.53077
G1 X207.205 Y132.300 E1764.56266
G1 X206.885 Y131.700 E1764.59455
G1 X207.205 Y131.100 E1764.62644
G1 X206.885 Y130.500 E1764.65833
G1 X207.205 Y129.900 E1764.69022
G1 X206.885 Y129.300 E1764.72211
G1 X207.205 Y128.700 E1764.75400
G1 X206.885 Y128.100 E1764.78589
G1 X207.205 Y127.500 E1764.81778
G1 X206.885 Y126.900 E1764.84967
G1 X207.205 Y126.300 E1764.88156
G1 X206.885 Y125.700 E1764.91345
G1 X207.205 Y125.100 E1764.94534
G1 X206.885 Y124.500 E1764.97723
G1 X207.205 Y123.900 E1765.00912
G1 X206.885 Y123.300 E1765.04101
G1 X207.205 Y122.700 E1765.07290
G1 X206.885 Y122.100 E1765.10479
G1 X207.205 Y121.500 E1765.13668
G1 X206.885 Y120.900 E1765.16857
G1 X207.205 Y120.300 E1765.20045
G1 X206.885 Y119.700 E1765.23234
G1 X207.205 Y119.100 E1765.26423
G1 X206.885 Y118.500 E1765.29612
G1 X207.205 Y117.900 E1765.32801
G1 X206.885 Y117.300 E1765.35990
G1 X207.205 Y116.700 E1765.39179
G1 X206.885 Y116.100 E1765.42368
G1 X207.205 Y115.500 E1765.45557
G1 X206.885 Y114.900 E1765.48746
G1 X207.205 Y114.300 E1765.51935
G1 X206.885 Y113.700 E1765.55124
G1 X207.205 Y113.100 E1765.58313
G1 X206.885 Y112.500 E1765.61502
G1 X207.205 Y111.900 E1765.64691
G1 X206.885 Y111.300 E1765.67880
G1 X207.205 Y110.700 E1765.71069
G1 X206.885 Y110.100 E1765.74258
G1 X207.205 Y109.500 E1765.77447
G1 X206.885 Y108.900 E1765.80636
G1 X207.205 Y108.300 E1765.83825
G1 X206.885 Y107.700 E1765.87014
G1 X207.205 Y107.100 E1765.90203
G1 X206.885 Y106.500 E1765.93392
G1 X207.205 Y105.900 E1765.96581
G1 X206.885 Y105.300 E1765.99770
G1 X207.205 Y104.700 E1766.02959
G1 X206.885 Y104.100 E1766.06148
G1 X207.205 Y103.500 E1766.09337
G1 X206.885 Y102.900 E1766.12526
G1 X207.205 Y102.300 E1766.15715
G1 X206.885 Y101.700 E1766.18904
G1 X207.205 Y101.100 E1766.22093
G1 X206.885 Y100.500 E1766.25282
G1 X207.205 Y99.900 E1766.28471
G1 X206.885 Y99.300 E1766.31660
G1 X207.205 Y98.700 E1766.34849
G1 X206.885 Y98.100 E1766.38038
G1 X207.205 Y97.500 E1766.41227
G1 X206.885 Y96.900 E1766.44416
G1 X207.205 Y96.300 E1766.47605
G1 X206.885 Y95.700 E1766.50794
G1 X207.205 Y95.100 E1766.53983
G1 X206.885 Y94.500 E1766.57172
G1 X207.205 Y93.900 E1766.60361
G1 X206.885 Y93.300 E1766.63550
G1 X207.205 Y92.700 E1766.66739
G1 X206.885 Y92.100 E1766.69928
G1 X207.205 Y91.500 E1766.73117
G1 X206.885 Y90.900 E1766.76306
G1 X207.205 Y90.300 E1766.79495
G1 X206.885 Y89.700 E1766.82684
G1 X207.205 Y89.100 E1766.85873
G1 X206.885 Y88.500 E1766.89062
G1 X207.205 Y87.900 E1766.92250
G1 X206.885 Y87.300 E1766.95439
G1 X207.205 Y86.700 E1766.98628
G1 X206.885 Y86.100 E1767.01817
G1 X207.205 Y85.500 E1767.05006
G1 X206.885 Y84.900 E1767.08195
G1 X207.205 Y84.300 E1767.11384
G1 X206.885 Y83.700 E1767.14573
G1 X207.205 Y83.100 E1767.17762
G1 X206.885 Y82.500 E1767.20951
G1 X207.205 Y81.900 E1767.24140
G1 X206.885 Y81.300 E1767.27329
G1 X207.205 Y80.700 E1767.30518
G1 X206.885 Y80.100 E1767.33707
G1 X207.205 Y79.500 E1767.36896
G1 X206.885 Y78.900 E1767.40085
G1 X207.205 Y78.300 E1767.43274
G1 X206.885 Y77.700 E1767.46463
G1 X207.205 Y77.100 E1767.49652
G1 X206.885 Y76.500 E1767.52841
G1 X207.205 Y75.900 E1767.56030
G1 X206.885 Y75.300 E1767.59219
G1 X207.205 Y74.700 E1767.62408
G1 X206.885 Y74.100 E1767.65597
G1 X207.205 Y73.500 E1767.68786
G1 X206.885 Y72.900 E1767.71975
G1 X207.205 Y72.300 E1767.75164
G1 X206.885 Y71.700 E1767.78353
G1 X207.205 Y71.100 E1767.81542
G1 X206.885 Y70.500 E1767.84731
G1 X207.205 Y69.900 E1767.87920
G1 X206.885 Y69.300 E1767.91109
G1 X207.205 Y68.700 E1767.94298
G1 X206.885 Y68.100 E1767.97487
G1 X207.205 Y67.500 E1768.00676
G1 X206.885 Y66.900 E1768.03865
G1 X207.205 Y66.300 E1768.07054
G1 X206.885 Y65.700 E1768.10243
G1 X207.205 Y65.100 E1768.13432
G1 X206.885 Y64.500 E1768.16621
G1 X207.205 Y63.900 E1768.19810
G1 X206.885 Y63.300 E1768.22999
G1 X207.205 Y62.700 E1768.26188
G1 X206.885 Y62.100 E1768.29377
G1 X207.205 Y61.500 E1768.32566
G1 X206.885 Y60.900 E1768.35755
G1 X207.205 Y60.300 E1768.38944
G1 X206.885 Y59.700 E1768.42133
G1 X207.205 Y59.100 E1768.45322
G1 X206.885 Y58.500 E1768.48511
G1 X207.205 Y57.900 E1768.51700
G1 X206.885 Y57.300 E1768.54889
G1 X207.205 Y56.700 E1768.58078
G1 X206.885 Y56.400 E1768.62454
;LAYER:2
M106 S40
G0 F12000 X206.676 Y56.452 Z1.200
;TYPE:WALL-INNER
G1 F2400 X98.324 Y56.452 E1779.43595
G1 X98.324 Y248.548 E1798.60337
G1 X206.676 Y248.548 E1809.41477
G1 X206.676 Y56.452 E1828.58219
G0 F12000 X207.416 Y55.712
G1 F2400 X207.416 Y249.288 E1847.89728
G1 X97.584 Y249.288 E1858.85636
G1 X97.584 Y55.712 E1878.17145
G1 X207.416 Y55.712 E1889.13054
G0 F12000 X208.016 Y55.112
;TYPE:WALL-OUTER
G1 F2400 X208.016 Y249.888 E1908.56536
G1 X96.984 Y249.888 E1919.64418
G1 X96.984 Y55.112 E1939.07901
G1 X208.016 Y55.112 E1950.15783
G1 F2100 E1949.75783
G0 F12000 X206.076 Y57.052
G1 F2100 E1950.15783
G1 F2400 X98.924 Y57.052 E1960.84950
G1 X98.924 Y247.948 E1979.89718
G1 X206.076 Y247.948 E1990.58885
G1 X206.076 Y57.052 E2009.63653
G0 F12000 X205.800 Y56.242
;TYPE:SKIN
G1 F2400 X205.500 Y55.922 E2009.66848
G1 X204.900 Y56.242 E2009.70037
G1 X204.300 Y55.922 E2009.73226
G1 X203.700 Y56.242 E2009.76415
G1 X203.100 Y55.922 E2009.79604
G1 X202.500 Y56.242 E2009.82793
G1 X201.900 Y55.922 E2009.85982
G1 X201.300 Y56.242 E2009.89171
G1 X200.700 Y55.922 E2009.92360
G1 X200.400 Y56.242 E2009.96736
G1 F2100 E2009.56736
G0 F12000 X206.400 Y56.242
G1 F2100 E2009.96736
G1 F2400 X206.400 Y55.922 E2009.99929
G0 F12000 X207.000 Y55.922
G1 F2400 X207.000 Y249.078 E2029.27248
G0 F12000 X206.400 Y249.078
G1 F2400 X206.100 Y248.758 E2029.30443
G1 X205.500 Y249.078 E2029.33632
G1 X204.900 Y248.758 E2029.36821
G1 X204.300 Y249.078 E2029.40010
G1 X203.700 Y248.758 E2029.43199
G1 X203.100 Y249.078 E2029.46388
G1 X202.500 Y248.758 E2029.49577
G1 X201.900 Y249.078 E2029.52766
G1 X201.300 Y248.758 E2029.55955
G1 X200.700 Y249.078 E2029.59144
G1 X200.100 Y248.758 E2029.62333
G1 X199.500 Y249.078 E2029.65522
G1 X198.900 Y248.758 E2029.68710
G1 X198.300 Y249.078 E2029.71899
G1 X197.700 Y248.758 E2029.75088
G1 X197.100 Y249.078 E2029.78277
G1 X196.500 Y248.758 E2029.81466
G1 X195.900 Y249.078 E2029.84655
G1 X195.300 Y248.758 E2029.87844
G1 X194.700 Y249.078 E2029.91033
G1 X194.100 Y248.758 E2029.94222
G1 X193.500 Y249.078 E2029.97411
G1 X192.900 Y248.758 E2030.00600
G1 X192.300 Y249.078 E2030.03789
G1 X191.700 Y248.758 E2030.06978
G1 X191.100 Y249.078 E2030.10167
G1 X190.500 Y248.758 E2030.13356
G1 X189.900 Y249.078 E2030.16545
G1 X189.300 Y248.758 E2030.19734
G1 X188.700 Y249.078 E2030.22923
G1 X188.100 Y248.758 E2030.26112
G1 X187.500 Y249.078 E2030.29301
G1 X186.900 Y248.758 E2030.32490
G1 X186.300 Y249.078 E2030.35679
G1 X185.700 Y248.758 E2030.38868
G1 X185.100 Y249.078 E2030.42057
G1 X184.500 Y248.758 E2030.45246
G1 X183.900 Y249.078 E2030.48435
G1 X183.300 Y248.758 E2030.51624
G1 X182.700 Y249.078 E2030.54813
G1 X182.100 Y248.758 E2030.58002
G1 X181.500 Y249.078 E2030.61191
G1 X180.900 Y248.758 E2030.64380
G1 X180.300 Y249.078 E2030.67569
G1 X179.700 Y248.758 E2030.70758
G1 X179.100 Y249.078 E2030.73947
G1 X178.500 Y248.758 E2030.77136
G1 X177.900 Y249.078 E2030.80325
G1 X177.300 Y248.758 E2030.83514
G1 X176.700 Y249.078 E2030.86703
G1 X176.100 Y248.758 E2030.89892
G1 X175.500 Y249.078 E2030.93081
G1 X174.900 Y248.758 E2030.96270
G1 X174.300 Y249.078 E2030.99459
G1 X173.700 Y248.758 E2031.02648
G1 X173.100 Y249.078 E2031.05837
G1 X172.500 Y248.758 E2031.09026
G1 X171.900 Y249.078 E2031.12215
G1 X171.300 Y248.758 E2031.15404
G1 X170.700 Y249.078 E2031.18593
G1 X170.100 Y248.758 E2031.21782
G1 X169.500 Y249.078 E2031.24971
G1 X168.900 Y248.758 E2031.28160
G1 X168.300 Y249.078 E2031.31349
G1 X167.700 Y248.758 E2031.34538
G1 X167.100 Y249.078 E2031.37727
G1 X166.500 Y248.758 E2031.40916
G1 X165.900 Y249.078 E2031.44104
G1 X165.300 Y248.758 E2031.47293
G1 X164.700 Y249.078 E2031.50482
G1 X164.100 Y248.758 E2031.53671
G1 X163.500 Y249.078 E2031.56860
G1 X162.900 Y248.758 E2031.60049
G1 X162.300 Y249.078 E2031.63238
G1 X161.700 Y248.758 E2031.66427
G1 X161.100 Y249.078 E2031.69616
G1 X160.500 Y248.758 E2031.72805
G1 X159.900 Y249.078 E2031.75994
G1 X159.300 Y248.758 E2031.79183
G1 X158.700 Y249.078 E2031.82372
G1 X158.100 Y248.758 E2031.85561
G1 X157.500 Y249.078 E2031.88750
G1 X156.900 Y248.758 E2031.91939
G1 X156.300 Y249.078 E2031.95128
G1 X155.700 Y248.758 E2031.98317
G1 X155.100 Y249.078 E2032.01506
G1 X154.500 Y248.758 E2032.04695
G1 X153.900 Y249.078 E2032.07884
G1 X153.300 Y248.758 E2032.11073
G1 X152.700 Y249.078 E2032.14262
G1 X152.100 Y248.758 E2032.17451
G1 X151.500 Y249.078 E2032.20640
G1 X150.900 Y248.758 E2032.23829
G1 X150.300 Y249.078 E2032.27018
G1 X149.700 Y248.758 E2032.30207
G1 X149.100 Y249.078 E2032.33396
G1 X148.500 Y248.758 E2032.36585
G1 X147.900 Y249.078 E2032.39774
G1 X147.300 Y248.758 E2032.42963
G1 X146.700 Y249.078 E2032.46152
G1 X146.100 Y248.758 E2032.49341
G1 X145.500 Y249.078 E2032.52530
G1 X144.900 Y248.758 E2032.55719
G1 X144.300 Y249.078 E2032.58908
G1 X143.700 Y248.758 E2032.62097
G1 X143.100 Y249.078 E2032.65286
G1 X142.500 Y248.758 E2032.68475
G1 X141.900 Y249.078 E2032.71664
G1 X141.300 Y248.758 E2032.74853
G1 X140.700 Y249.078 E2032.78042
G1 X140.100 Y248.758 E2032.81231
G1 X139.500 Y249.078 E2032.84420
G1 X138.900 Y248.758 E2032.87609
G1 X138.300 Y249.078 E2032.90798
G1 X137.700 Y248.758 E2032.93987
G1 X137.100 Y249.078 E2032.97176
G1 X136.500 Y248.758 E2033.00365
G1 X135.900 Y249.078 E2033.03554
G1 X135.300 Y248.758 E2033.06743
G1 X134.700 Y249.078 E2033.09932
G1 X134.100 Y248.758 E2033.13121
G1 X133.500 Y249.078 E2033.16310
G1 X132.900 Y248.758 E2033.19498
G1 X132.300 Y249.078 E2033.22687
G1 X131.700 Y248.758 E2033.25876
G1 X131.100 Y249.078 E2033.29065
G1 X130.500 Y248.758 E2033.32254
G1 X129.900 Y249.078 E2033.35443
G1 X129.300 Y248.758 E2033.38632
G1 X128.700 Y249.078 E2033.41821
G1 X128.100 Y248.758 E2033.45010
G1 X127.500 Y249.078 E2033.48199
G1 X126.900 Y248.758 E2033.51388
G1 X126.300 Y249.078 E2033.54577
G1 X125.700 Y248.758 E2033.57766
G1 X125.100 Y249.078 E2033.60955
G1 X124.500 Y248.758 E2033.64144
G1 X123.900 Y249.078 E2033.67333
G1 X123.300 Y248.758 E2033.70522
G1 X122.700 Y249.078 E2033.73711
G1 X122.100 Y248.758 E2033.76900
G1 X121.500 Y249.078 E2033.80089
G1 X120.900 Y248.758 E2033.83278
G1 X120.300 Y249.078 E2033.86467
G1 X119.700 Y248.758 E2033.89656
G1 X119.100 Y249.078 E2033.92845
G1 X118.500 Y248.758 E2033.96034
G1 X117.900 Y249.078 E2033.99223
G1 X117.300 Y248.758 E2034.02412
G1 X116.700 Y249.078 E2034.05601
G1 X116.100 Y248.758 E2034.08790
G1 X115.500 Y249.078 E2034.11979
G1 X114.900 Y248.758 E2034.15168
G1 X114.300 Y249.078 E2034.18357
G1 X113.700 Y248.758 E2034.21546
G1 X113.100 Y249.078 E2034.24735
G1 X112.500 Y248.758 E2034.27924
G1 X111.900 Y249.078 E2034.31113
G1 X111.300 Y248.758 E2034.34302
G1 X110.700 Y249.078 E2034.37491
G1 X110.100 Y248.758 E2034.40680
G1 X109.500 Y249.078 E2034.43869
G1 X108.900 Y248.758 E2034.47058
G1 X108.300 Y249.078 E2034.50247
G1 X107.700 Y248.758 E2034.53436
G1 X107.100 Y249.078 E2034.56625
G1 X106.500 Y248.758 E2034.59814
G1 X105.900 Y249.078 E2034.63003
G1 X105.300 Y248.758 E2034.66192
G1 X104.700 Y249.078 E2034.69381
G1 X104.100 Y248.758 E2034.72570
G1 X103.500 Y249.078 E2034.75759
G1 X102.900 Y248.758 E2034.78948
G1 X102.300 Y249.078 E2034.82137
G1 X101.700 Y248.758 E2034.85326
G1 X101.100 Y249.078 E2034.88515
G1 X100.500 Y248.758 E2034.91704
G1 X99.900 Y249.078 E2034.94892
G1 X99.300 Y248.758 E2034.98081
G1 X98.700 Y249.078 E2035.01270
G1 X98.400 Y248.758 E2035.05647
G0 F12000 X97.800 Y249.078
G1 F2400 X97.800 Y55.922 E2054.32966
G0 F12000 X98.400 Y55.922
G1 F2400 X98.700 Y56.242 E2054.36161
G1 X99.300 Y55.922 E2054.39350
G1 X99.900 Y56.242 E2054.42539
G1 X100.500 Y55.922 E2054.45727
G1 X101.100 Y56.242 E2054.48916
G1 X101.700 Y55.922 E2054.52105
G1 X102.300 Y56.242 E2054.55294
G1 X102.900 Y55.922 E2054.58483
G1 X103.500 Y56.242 E2054.61672
G1 X104.100 Y55.922 E2054.64861
G1 X104.700 Y56.242 E2054.68050
G1 X105.300 Y55.922 E2054.71239
G1 X105.900 Y56.242 E2054.74428
G1 X106.500 Y55.922 E2054.77617
G1 X107.100 Y56.242 E2054.80806
G1 X107.700 Y55.922 E2054.83995
G1 X108.300 Y56.242 E2054.87184
G1 X108.900 Y55.922 E2054.90373
G1 X109.500 Y56.242 E2054.93562
G1 X110.100 Y55.922 E2054.96751
G1 X110.700 Y56.242 E2054.99940
G1 X111.300 Y55.922 E2055.03129
G1 X111.900 Y56.242 E2055.06318
G1 X112.500 Y55.922 E2055.09507
G1 X113.100 Y56.242 E2055.12696
G1 X113.700 Y55.922 E2055.15885
G1 X114.300 Y56.242 E2055.19074
G1 X114.900 Y55.922 E2055.22263
G1 X115.500 Y56.242 E2055.25452
G1 X116.100 Y55.922 E2055.28641
G1 X116.700 Y56.242 E2055.31830
G1 X117.300 Y55.922 E2055.35019
G1 X117.900 Y56.242 E2055.38208
G1 X118.500 Y55.922 E2055.41397
G1 X119.100 Y56.242 E2055.44586
G1 X119.700 Y55.922 E2055.47775
G1 X120.300 Y56.242 E2055.50964
G1 X120.900 Y55.922 E2055.54153
G1 X121.500 Y56.242 E2055.57342
G1 X122.100 Y55.922 E2055.60531
G1 X122.700 Y56.242 E2055.63720
G1 X123.300 Y55.922 E2055.66909
G1 X123.900 Y56.242 E2055.70098
G1 X124.500 Y55.922 E2055.73287
G1 X125.100 Y56.242 E2055.76476
G1 X125.700 Y55.922 E2055.79665
G1 X126.300 Y56.242 E2055.82854
G1 X126.900 Y55.922 E2055.86043
G1 X127.500 Y56.242 E2055.89232
G1 X128.100 Y55.922 E2055.92421
G1 X128.700 Y56.242 E2055.95610
G1 X129.300 Y55.922 E2055.98799
G1 X129.900 Y56.242 E2056.01988
G1 X130.500 Y55.922 E2056.05177
G1 X131.100 Y56.242 E2056.08366
G1 X131.700 Y55.922 E2056.11555
G1 X132.300 Y56.242 E2056.14744
G1 X132.900 Y55.922 E2056.17933
G1 X133.500 Y56.242 E2056.21121
G1 X134.100 Y55.922 E2056.24310
G1 X134.700 Y56.242 E2056.27499
G1 X135.300 Y55.922 E2056.30688
G1 X135.900 Y56.242 E2056.33877
G1 X136.500 Y55.922 E2056.37066
G1 X137.100 Y56.242 E2056.40255
G1 X137.700 Y55.922 E2056.43444
G1 X138.300 Y56.242 E2056.46633
G1 X138.900 Y55.922 E2056.49822
G1 X139.500 Y56.242 E2056.53011
G1 X140.100 Y55.922 E2056.56200
G1 X140.700 Y56.242 E2056.59389
G1 X141.300 Y55.922 E2056.62578
G1 X141.900 Y56.242 E2056.65767
G1 X142.500 Y55.922 E2056.68956
G1 X143.100 Y56.242 E2056.72145
G1 X143.700 Y55.922 E2056.75334
G1 X144.300 Y56.242 E2056.78523
G1 X144.900 Y55.922 E2056.81712
G1 X145.500 Y56.242 E2056.84901
G1 X146.100 Y55.922 E2056.88090
G1 X146.700 Y56.242 E2056.91279
G1 X147.300 Y55.922 E2056.94468
G1 X147.900 Y56.242 E2056.97657
G1 X148.500 Y55.922 E2057.00846
G1 X149.100 Y56.242 E2057.04035
G1 X149.700 Y55.922 E2057.07224
G1 X150.300 Y56.242 E2057.10413
G1 X150.900 Y55.922 E2057.13602
G1 X151.500 Y56.242 E2057.16791
G1 X152.100 Y55.922 E2057.19980
G1 X152.700 Y56.242 E2057.23169
G1 X153.300 Y55.922 E2057.26358
G1 X153.900 Y56.242 E2057.29547
G1 X154.500 Y55.922 E2057.32736
G1 X155.100 Y56.242 E2057.35925
G1 X155.700 Y55.922 E2057.39114
G1 X156.300 Y56.242 E2057.42303
G1 X156.900 Y55.922 E2057.45492
G1 X157.500 Y56.242 E2057.48681
G1 X158.100 Y55.922 E2057.51870
G1 X158.700 Y56.242 E2057.55059
G1 X159.300 Y55.922 E2057.58248
G1 X159.900 Y56.242 E2057.61437
G1 X160.500 Y55.922 E2057.64626
G1 X161.100 Y56.242 E2057.67815
G1 X161.700 Y55.922 E2057.71004
G1 X162.300 Y56.242 E2057.74193
G1 X162.900 Y55.922 E2057.77382
G1 X163.500 Y56.242 E2057.80571
G1 X164.100 Y55.922 E2057.83760
G1 X164.700 Y56.242 E2057.86949
G1 X165.300 Y55.922 E2057.90138
G1 X165.900 Y56.242 E2057.93327
G1 X166.500 Y55.922 E2057.96515
G1 X167.100 Y56.242 E2057.99704
G1 X167.700 Y55.922 E2058.02893
G1 X168.300 Y56.242 E2058.06082
G1 X168.900 Y55.922 E2058.09271
G1 X169.500 Y56.242 E2058.12460
G1 X170.100 Y55.922 E2058.15649
G1 X170.700 Y56.242 E2058.18838
G1 X171.300 Y55.922 E2058.22027
G1 X171.900 Y56.242 E2058.25216
G1 X172.500 Y55.922 E2058.28405
G1 X173.100 Y56.242 E2058.31594
G1 X173.700 Y55.922 E2058.34783
G1 X174.300 Y56.242 E2058.37972
G1 X174.900 Y55.922 E2058.41161
G1 X175.500 Y56.242 E2058.44350
G1 X176.100 Y55.922 E2058.47539
G1 X176.700 Y56.242 E2058.50728
G1 X177.300 Y55.922 E2058.53917
G1 X177.900 Y56.242 E2058.57106
G1 X178.500 Y55.922 E2058.60295
G1 X179.100 Y56.242 E2058.63484
G1 X179.700 Y55.922 E2058.66673
G1 X180.300 Y56.242 E2058.69862
G1 X180.900 Y55.922 E2058.73051
G1 X181.500 Y56.242 E2058.76240
G1 X182.100 Y55.922 E2058.79429
G1 X182.700 Y56.242 E2058.82618
G1 X183.300 Y55.922 E2058.85807
G1 X183.900 Y56.242 E2058.88996
G1 X184.500 Y55.922 E2058.92185
G1 X185.100 Y56.242 E2058.95374
G1 X185.700 Y55.922 E2058.98563
G1 X186.300 Y56.242 E2059.01752
G1 X186.900 Y55.922 E2059.04941
G1 X187.500 Y56.242 E2059.08130
G1 X188.100 Y55.922 E2059.11319
G1 X188.700 Y56.242 E2059.14508
G1 X189.300 Y55.922 E2059.17697
G1 X189.900 Y56.242 E2059.20886
G1 X190.500 Y55.922 E2059.24075
G1 X191.100 Y56.242 E2059.27264
G1 X191.700 Y55.922 E2059.30453
G1 X192.300 Y56.242 E2059.33642
G1 X192.900 Y55.922 E2059.36831
G1 X193.500 Y56.242 E2059.40020
G1 X194.100 Y55.922 E2059.43209
G1 X194.700 Y56.242 E2059.46398
G1 X195.300 Y55.922 E2059.49587
G1 X195.900 Y56.242 E2059.52776
G1 X196.500 Y55.922 E2059.55965
G1 X197.100 Y56.242 E2059.59154
G1 X197.700 Y55.922 E2059.62343
G1 X198.300 Y56.242 E2059.65532
G1 X198.900 Y55.922 E2059.68721
G1 X199.500 Y56.242 E2059.71909
G1 X199.800 Y55.922 E2059.76286
;LAYER:3
M106 S63
G1 F2100 E2059.36286
G0 F12000 X206.676 Y56.452 Z1.600
;TYPE:WALL-INNER
G1 F2100 E2059.76286
G1 F2640 X98.324 Y56.452 E2070.57427
G1 X98.324 Y248.548 E2089.74169
G1 X206.676 Y248.548 E2100.55309
G1 X206.676 Y56.452 E2119.72051
G0 F12000 X207.416 Y55.712
G1 F2640 X207.416 Y249.288 E2139.03560
G1 X97.584 Y249.288 E2149.99468
G1 X97.584 Y55.712 E2169.30977
G1 X207.416 Y55.712 E2180.26885
G0 F12000 X208.016 Y55.112
;TYPE:WALL-OUTER
G1 F2640 X208.016 Y249.888 E2199.70368
G1 X96.984 Y249.888 E2210.78250
G1 X96.984 Y55.112 E2230.21733
G1 X208.016 Y55.112 E2241.29615
G1 F2100 E2240.89615
G0 F12000 X206.076 Y57.052
G1 F2100 E2241.29615
G1 F2640 X98.924 Y57.052 E2251.98782
G1 X98.924 Y247.948 E2271.03550
G1 X206.076 Y247.948 E2281.72717
G1 X206.076 Y57.052 E2300.77485
G0 F12000 X206.885 Y58.156
;TYPE:FILL
G1 F2640 X207.204 Y57.972 E2300.81159
G1 F2100 E2300.41159
G0 F12000 X204.483 Y56.242
G1 F2100 E2300.81159
G1 F2640 X204.483 Y55.922 E2300.84352
G1 F2100 E2300.44352
G0 F12000 X194.681 Y55.922
G1 F2100 E2300.84352
G1 F2640 X194.681 Y56.242 E2300.87545
G1 F2100 E2300.47545
G0 F12000 X191.153 Y55.921
G1 F2100 E2300.87545
G1 F2640 X190.508 Y56.242 E2300.93955
G1 X189.866 Y55.922 E2301.01113
G1 F2100 E2300.61113
G0 F12000 X184.879 Y55.922
G1 F2100 E2301.01113
G1 F2640 X184.879 Y56.242 E2301.04306
G1 F2100 E2300.64306
G0 F12000 X175.077 Y56.242
G1 F2100 E2301.04306
G1 F2640 X175.077 Y55.922 E2301.07499
G1 F2100 E2300.67499
G0 F12000 X171.549 Y55.921
G1 F2100 E2301.07499
G1 F2640 X170.904 Y56.242 E2301.13909
G1 X170.261 Y55.922 E2301.21075
G1 F2100 E2300.81075
G0 F12000 X165.275 Y55.922
G1 F2100 E2301.21075
G1 F2640 X165.275 Y56.242 E2301.24268
G1 F2100 E2300.84268
G0 F12000 X155.473 Y56.242
G1 F2100 E2301.24268
G1 F2640 X155.473 Y55.922 E2301.27461
G1 F2100 E2300.87461
G0 F12000 X151.945 Y55.921
G1 F2100 E2301.27461
G1 F2640 X151.300 Y56.242 E2301.33871
G1 X150.658 Y55.922 E2301.41029
G1 F2100 E2301.01029
G0 F12000 X145.671 Y55.922
G1 F2100 E2301.41029
G1 F2640 X145.671 Y56.242 E2301.44222
G1 F2100 E2301.04222
G0 F12000 X135.869 Y56.242
G1 F2100 E2301.44222
G1 F2640 X135.869 Y55.922 E2301.47415
G1 F2100 E2301.07415
G0 F12000 X132.341 Y55.921
G1 F2100 E2301.47415
G1 F2640 X131.696 Y56.242 E2301.53825
G1 X131.053 Y55.922 E2301.60991
G1 F2100 E2301.20991
G0 F12000 X126.067 Y55.922
G1 F2100 E2301.60991
G1 F2640 X126.067 Y56.242 E2301.64184
G1 F2100 E2301.24184
G0 F12000 X116.265 Y56.242
G1 F2100 E2301.64184
G1 F2640 X116.265 Y55.922 E2301.67377
G1 F2100 E2301.27377
G0 F12000 X112.737 Y55.921
G1 F2100 E2301.67377
G1 F2640 X112.092 Y56.242 E2301.73787
G1 X111.450 Y55.922 E2301.80945
G1 F2100 E2301.40945
G0 F12000 X106.463 Y55.922
G1 F2100 E2301.80945
G1 F2640 X106.463 Y56.242 E2301.84138
G1 F2100 E2301.44138
G0 F12000 X98.113 Y59.540
G1 F2100 E2301.84138
G1 F2640 X97.793 Y59.356 E2301.87821
G1 F2100 E2301.47821
G0 F12000 X98.113 Y64.364
G1 F2100 E2301.87821
G1 F2640 X97.794 Y64.548 E2301.91495
G1 F2100 E2301.51495
G0 F12000 X97.793 Y70.674
G1 F2100 E2301.91495
G1 F2640 X98.114 Y70.859 E2301.95192
G1 F2100 E2301.55192
G0 F12000 X98.113 Y75.683
G1 F2100 E2301.95192
G1 F2640 X97.793 Y75.867 E2301.98875
G1 F2100 E2301.58875
G0 F12000 X97.793 Y81.992
G1 F2100 E2301.98875
G1 F2640 X98.113 Y82.177 E2302.02564
G1 F2100 E2301.62564
G0 F12000 X98.113 Y87.001
G1 F2100 E2302.02564
G1 F2640 X97.793 Y87.185 E2302.06247
G1 F2100 E2301.66247
G0 F12000 X97.793 Y93.310
G1 F2100 E2302.06247
G1 F2640 X98.113 Y93.495 E2302.09935
G1 F2100 E2301.69935
G0 F12000 X98.113 Y98.319
G1 F2100 E2302.09935
G1 F2640 X97.793 Y98.504 E2302.13623
G1 F2100 E2301.73623
G0 F12000 X97.793 Y104.629
G1 F2100 E2302.13623
G1 F2640 X98.113 Y104.814 E2302.17311
G1 F2100 E2301.77311
G0 F12000 X98.113 Y109.637
G1 F2100 E2302.17311
G1 F2640 X97.794 Y109.822 E2302.20991
G1 F2100 E2301.80991
G0 F12000 X97.793 Y115.948
G1 F2100 E2302.20991
G1 F2640 X98.114 Y116.133 E2302.24688
G1 F2100 E2301.84688
G0 F12000 X98.113 Y120.956
G1 F2100 E2302.24688
G1 F2640 X97.794 Y121.140 E2302.28362
G1 F2100 E2301.88362
G0 F12000 X97.793 Y127.266
G1 F2100 E2302.28362
G1 F2640 X98.114 Y127.451 E2302.32059
G1 F2100 E2301.92059
G0 F12000 X98.113 Y132.274
G1 F2100 E2302.32059
G1 F2640 X97.794 Y132.458 E2302.35733
G1 F2100 E2301.95733
G0 F12000 X97.793 Y138.584
G1 F2100 E2302.35733
G1 F2640 X98.113 Y138.769 E2302.39422
G1 F2100 E2301.99422
G0 F12000 X98.113 Y143.593
G1 F2100 E2302.39422
G1 F2640 X97.794 Y143.777 E2302.43096
G1 F2100 E2302.03096
G0 F12000 X97.793 Y149.902
G1 F2100 E2302.43096
G1 F2640 X98.113 Y150.087 E2302.46784
G1 F2100 E2302.06784
G0 F12000 X98.113 Y154.911
G1 F2100 E2302.46784
G1 F2640 X97.794 Y155.095 E2302.50459
G1 F2100 E2302.10459
G0 F12000 X97.794 Y161.221
G1 F2100 E2302.50459
G1 F2640 X98.114 Y161.406 E2302.54147
G1 F2100 E2302.14147
G0 F12000 X98.113 Y166.229
G1 F2100 E2302.54147
G1 F2640 X97.794 Y166.414 E2302.57827
G1 F2100 E2302.17827
G0 F12000 X97.793 Y172.539
G1 F2100 E2302.57827
G1 F2640 X98.114 Y172.724 E2302.61523
G1 F2100 E2302.21523
G0 F12000 X98.113 Y177.548
G1 F2100 E2302.61523
G1 F2640 X97.794 Y177.732 E2302.65198
G1 F2100 E2302.25198
G0 F12000 X97.793 Y183.858
G1 F2100 E2302.65198
G1 F2640 X98.114 Y184.043 E2302.68895
G1 F2100 E2302.28895
G0 F12000 X98.113 Y188.866
G1 F2100 E2302.68895
G1 F2640 X97.794 Y189.050 E2302.72569
G1 F2100 E2302.32569
G0 F12000 X97.793 Y195.176
G1 F2100 E2302.72569
G1 F2640 X98.114 Y195.361 E2302.76266
G1 F2100 E2302.36266
G0 F12000 X98.114 Y200.184
G1 F2100 E2302.76266
G1 F2640 X97.794 Y200.369 E2302.79954
G1 F2100 E2302.39954
G0 F12000 X97.793 Y206.494
G1 F2100 E2302.79954
G1 F2640 X98.114 Y206.680 E2302.83656
G1 F2100 E2302.43656
G0 F12000 X98.113 Y211.503
G1 F2100 E2302.83656
G1 F2640 X97.794 Y211.687 E2302.87331
G1 F2100 E2302.47331
G0 F12000 X97.794 Y217.813
G1 F2100 E2302.87331
G1 F2640 X98.114 Y217.998 E2302.91019
G1 F2100 E2302.51019
G0 F12000 X98.113 Y222.821
G1 F2100 E2302.91019
G1 F2640 X97.794 Y223.005 E2302.94693
G1 F2100 E2302.54693
G0 F12000 X97.793 Y229.131
G1 F2100 E2302.94693
G1 F2640 X98.114 Y229.316 E2302.98390
G1 F2100 E2302.58390
G0 F12000 X98.113 Y234.139
G1 F2100 E2302.98390
G1 F2640 X97.795 Y234.323 E2303.02056
G1 F2100 E2302.62056
G0 F12000 X97.793 Y240.450
G1 F2100 E2303.02056
G1 F2640 X98.114 Y240.635 E2303.05753
G1 F2100 E2302.65753
G0 F12000 X98.113 Y245.458
G1 F2100 E2303.05753
G1 F2640 X97.795 Y245.642 E2303.09419
G1 F2100 E2302.69419
G0 F12000 X106.463 Y248.758
G1 F2100 E2303.09419
G1 F2640 X106.463 Y249.078 E2303.12612
G1 F2100 E2302.72612
G0 F12000 X111.449 Y249.077
G1 F2100 E2303.12612
G1 F2640 X112.093 Y248.757 E2303.18998
G1 X112.736 Y249.077 E2303.26164
G1 F2100 E2302.86164
G0 F12000 X116.265 Y249.078
G1 F2100 E2303.26164
G1 F2640 X116.265 Y248.758 E2303.29357
G1 F2100 E2302.89357
G0 F12000 X126.067 Y248.758
G1 F2100 E2303.29357
G1 F2640 X126.067 Y249.078 E2303.32550
G1 F2100 E2302.92550
G0 F12000 X131.053 Y249.077
G1 F2100 E2303.32550
G1 F2640 X131.697 Y248.756 E2303.38940
G1 X132.339 Y249.076 E2303.46098
G1 F2100 E2303.06098
G0 F12000 X135.869 Y249.078
G1 F2100 E2303.46098
G1 F2640 X135.869 Y248.758 E2303.49291
G1 F2100 E2303.09291
G0 F12000 X145.671 Y248.758
G1 F2100 E2303.49291
G1 F2640 X145.671 Y249.078 E2303.52484
G1 F2100 E2303.12484
G0 F12000 X150.656 Y249.077
G1 F2100 E2303.52484
G1 F2640 X151.301 Y248.757 E2303.58878
G1 X151.943 Y249.076 E2303.66031
G1 F2100 E2303.26031
G0 F12000 X155.473 Y249.078
G1 F2100 E2303.66031
G1 F2640 X155.473 Y248.758 E2303.69224
G1 F2100 E2303.29224
G0 F12000 X165.275 Y248.758
G1 F2100 E2303.69224
G1 F2640 X165.275 Y249.078 E2303.72417
G1 F2100 E2303.32417
G0 F12000 X170.261 Y249.077
G1 F2100 E2303.72417
G1 F2640 X170.904 Y248.757 E2303.78783
G1 X171.547 Y249.076 E2303.85945
G1 F2100 E2303.45945
G0 F12000 X175.077 Y249.078
G1 F2100 E2303.85945
G1 F2640 X175.077 Y248.758 E2303.89138
G1 F2100 E2303.49138
G0 F12000 X184.879 Y248.758
G1 F2100 E2303.89138
G1 F2640 X184.879 Y249.078 E2303.92331
G1 F2100 E2303.52331
G0 F12000 X189.864 Y249.077
G1 F2100 E2303.92331
G1 F2640 X190.509 Y248.757 E2303.98725
G1 X191.151 Y249.076 E2304.05878
G1 F2100 E2303.65878
G0 F12000 X194.681 Y249.078
G1 F2100 E2304.05878
G1 F2640 X194.681 Y248.758 E2304.09071
G1 F2100 E2303.69071
G0 F12000 X204.483 Y248.758
G1 F2100 E2304.09071
G1 F2640 X204.483 Y249.078 E2304.12264
G1 F2100 E2303.72264
G0 F12000 X206.885 Y246.842
G1 F2100 E2304.12264
G1 F2640 X207.206 Y247.027 E2304.15961
G1 F2100 E2303.75961
G0 F12000 X206.885 Y239.250
G1 F2100 E2304.15961
G1 F2640 X207.204 Y239.066 E2304.19636
G1 F2100 E2303.79636
G0 F12000 X207.205 Y235.708
G1 F2100 E2304.19636
G1 F2640 X206.885 Y235.523 E2304.23324
G1 F2100 E2303.83324
G0 F12000 X206.885 Y227.932
G1 F2100 E2304.23324
G1 F2640 X207.204 Y227.748 E2304.26998
G1 F2100 E2303.86998
G0 F12000 X207.206 Y224.390
G1 F2100 E2304.26998
G1 F2640 X206.885 Y224.205 E2304.30695
G1 F2100 E2303.90695
G0 F12000 X206.885 Y216.614
G1 F2100 E2304.30695
G1 F2640 X207.204 Y216.429 E2304.34375
G1 F2100 E2303.94375
G0 F12000 X207.206 Y213.072
G1 F2100 E2304.34375
G1 F2640 X206.885 Y212.887 E2304.38071
G1 F2100 E2303.98071
G0 F12000 X206.885 Y205.295
G1 F2100 E2304.38071
G1 F2640 X207.204 Y205.111 E2304.41746
G1 F2100 E2304.01746
G0 F12000 X207.206 Y201.754
G1 F2100 E2304.41746
G1 F2640 X206.885 Y201.568 E2304.45448
G1 F2100 E2304.05448
G0 F12000 X206.885 Y193.977
G1 F2100 E2304.45448
G1 F2640 X207.204 Y193.793 E2304.49122
G1 F2100 E2304.09122
G0 F12000 X207.206 Y190.435
G1 F2100 E2304.49122
G1 F2640 X206.885 Y190.250 E2304.52819
G1 F2100 E2304.12819
G0 F12000 X206.885 Y182.658
G1 F2100 E2304.52819
G1 F2640 X207.204 Y182.474 E2304.56494
G1 F2100 E2304.16494
G0 F12000 X207.205 Y179.117
G1 F2100 E2304.56494
G1 F2640 X206.885 Y178.932 E2304.60182
G1 F2100 E2304.20182
G0 F12000 X206.885 Y171.340
G1 F2100 E2304.60182
G1 F2640 X207.204 Y171.156 E2304.63856
G1 F2100 E2304.23856
G0 F12000 X207.205 Y167.798
G1 F2100 E2304.63856
G1 F2640 X206.885 Y167.613 E2304.67545
G1 F2100 E2304.27545
G0 F12000 X206.885 Y160.022
G1 F2100 E2304.67545
G1 F2640 X207.204 Y159.838 E2304.71219
G1 F2100 E2304.31219
G0 F12000 X207.206 Y156.480
G1 F2100 E2304.71219
G1 F2640 X206.884 Y156.294 E2304.74930
G1 F2100 E2304.34930
G0 F12000 X206.886 Y148.703
G1 F2100 E2304.74930
G1 F2640 X207.204 Y148.519 E2304.78595
G1 F2100 E2304.38595
G0 F12000 X207.206 Y145.162
G1 F2100 E2304.78595
G1 F2640 X206.884 Y144.976 E2304.82306
G1 F2100 E2304.42306
G0 F12000 X206.886 Y137.385
G1 F2100 E2304.82306
G1 F2640 X207.204 Y137.201 E2304.85972
G1 F2100 E2304.45972
G0 F12000 X207.205 Y133.843
G1 F2100 E2304.85972
G1 F2640 X206.885 Y133.658 E2304.89660
G1 F2100 E2304.49660
G0 F12000 X206.885 Y126.066
G1 F2100 E2304.89660
G1 F2640 X207.204 Y125.882 E2304.93334
G1 F2100 E2304.53334
G0 F12000 X207.205 Y122.525
G1 F2100 E2304.93334
G1 F2640 X206.885 Y122.340 E2304.97023
G1 F2100 E2304.57023
G0 F12000 X206.885 Y114.748
G1 F2100 E2304.97023
G1 F2640 X207.204 Y114.564 E2305.00697
G1 F2100 E2304.60697
G0 F12000 X207.205 Y111.206
G1 F2100 E2305.00697
G1 F2640 X206.884 Y111.021 E2305.04394
G1 F2100 E2304.64394
G0 F12000 X206.885 Y103.430
G1 F2100 E2305.04394
G1 F2640 X207.204 Y103.246 E2305.08068
G1 F2100 E2304.68068
G0 F12000 X207.206 Y99.888
G1 F2100 E2305.08068
G1 F2640 X206.884 Y99.703 E2305.11774
G1 F2100 E2304.71774
G0 F12000 X206.886 Y92.111
G1 F2100 E2305.11774
G1 F2640 X207.204 Y91.927 E2305.15440
G1 F2100 E2304.75440
G0 F12000 X207.206 Y88.570
G1 F2100 E2305.15440
G1 F2640 X206.884 Y88.384 E2305.19150
G1 F2100 E2304.79150
G0 F12000 X206.886 Y80.793
G1 F2100 E2305.19150
G1 F2640 X207.204 Y80.609 E2305.22816
G1 F2100 E2304.82816
G0 F12000 X207.205 Y77.251
G1 F2100 E2305.22816
G1 F2640 X206.885 Y77.066 E2305.26504
G1 F2100 E2304.86504
G0 F12000 X206.885 Y69.474
G1 F2100 E2305.26504
G1 F2640 X207.204 Y69.290 E2305.30179
G1 F2100 E2304.90179
G0 F12000 X207.205 Y65.933
G1 F2100 E2305.30179
G1 F2640 X206.884 Y65.747 E2305.33881
;LAYER:4
M106 S84
G1 F2100 E2304.93881
G0 F12000 X206.676 Y56.452 Z2.000
;TYPE:WALL-INNER
G1 F2100 E2305.33881
G1 F3000 X98.324 Y56.452 E2316.15021
G1 X98.324 Y248.548 E2335.31763
G1 X206.676 Y248.548 E2346.12904
G1 X206.676 Y56.452 E2365.29645
G0 F12000 X207.416 Y55.712
G1 F3000 X207.416 Y249.288 E2384.61154
G1 X97.584 Y249.288 E2395.57063
G1 X97.584 Y55.712 E2414.88572
G1 X207.416 Y55.712 E2425.84480
G0 F12000 X208.016 Y55.112
;TYPE:WALL-OUTER
G1 F3000 X208.016 Y249.888 E2445.27963
G1 X96.984 Y249.888 E2456.35845
G1 X96.984 Y55.112 E2475.79327
G1 X208.016 Y55.112 E2486.87209
G1 F2100 E2486.47209
G0 F12000 X206.076 Y57.052
G1 F2100 E2486.87209
G1 F3000 X98.924 Y57.052 E2497.56376
G1 X98.924 Y247.948 E2516.61144
G1 X206.076 Y247.948 E2527.30311
G1 X206.076 Y57.052 E2546.35079
G1 F2100 E2545.95079
G0 F12000 X206.885 Y58.484
;TYPE:FILL
G1 F2100 E2546.35079
G1 F3000 X207.204 Y58.300 E2546.38754
G1 F2100 E2545.98754
G0 F12000 X204.199 Y56.242
G1 F2100 E2546.38754
G1 F3000 X204.199 Y55.922 E2546.41947
G1 F2100 E2546.01947
G0 F12000 X194.397 Y55.922
G1 F2100 E2546.41947
G1 F3000 X194.397 Y56.242 E2546.45140
G1 F2100 E2546.05140
G0 F12000 X191.721 Y55.921
G1 F2100 E2546.45140
G1 F3000 X191.076 Y56.242 E2546.51550
G1 X190.434 Y55.922 E2546.58707
G1 F2100 E2546.18707
G0 F12000 X184.595 Y55.922
G1 F2100 E2546.58707
G1 F3000 X184.595 Y56.242 E2546.61900
G1 F2100 E2546.21900
G0 F12000 X174.793 Y56.242
G1 F2100 E2546.61900
G1 F3000 X174.793 Y55.922 E2546.65093
G1 F2100 E2546.25093
G0 F12000 X172.117 Y55.921
G1 F2100 E2546.65093
G1 F3000 X171.472 Y56.242 E2546.71503
G1 X170.829 Y55.922 E2546.78670
G1 F2100 E2546.38670
G0 F12000 X164.991 Y55.922
G1 F2100 E2546.78670
G1 F3000 X164.991 Y56.242 E2546.81863
G1 F2100 E2546.41863
G0 F12000 X155.189 Y56.242
G1 F2100 E2546.81863
G1 F3000 X155.189 Y55.922 E2546.85056
G1 F2100 E2546.45056
G0 F12000 X152.513 Y55.921
G1 F2100 E2546.85056
G1 F3000 X151.868 Y56.242 E2546.91466
G1 X151.226 Y55.922 E2546.98623
G1 F2100 E2546.58623
G0 F12000 X145.387 Y55.922
G1 F2100 E2546.98623
G1 F3000 X145.387 Y56.242 E2547.01816
G1 F2100 E2546.61816
G0 F12000 X135.585 Y56.242
G1 F2100 E2547.01816
G1 F3000 X135.585 Y55.922 E2547.05009
G1 F2100 E2546.65009
G0 F12000 X132.910 Y55.920
G1 F2100 E2547.05009
G1 F3000 X132.265 Y56.242 E2547.11423
G1 X131.621 Y55.922 E2547.18599
G1 F2100 E2546.78599
G0 F12000 X125.783 Y55.922
G1 F2100 E2547.18599
G1 F3000 X125.783 Y56.242 E2547.21792
G1 F2100 E2546.81792
G0 F12000 X115.981 Y56.242
G1 F2100 E2547.21792
G1 F3000 X115.981 Y55.922 E2547.24985
G1 F2100 E2546.84985
G0 F12000 X113.305 Y55.921
G1 F2100 E2547.24985
G1 F3000 X112.660 Y56.242 E2547.31395
G1 X112.018 Y55.922 E2547.38552
G1 F2100 E2546.98552
G0 F12000 X106.179 Y55.922
G1 F2100 E2547.38552
G1 F3000 X106.179 Y56.242 E2547.41745
G1 F2100 E2547.01745
G0 F12000 X98.113 Y59.212
G1 F2100 E2547.41745
G1 F3000 X97.793 Y59.028 E2547.45428
G1 F2100 E2547.05428
G0 F12000 X98.112 Y64.692
G1 F2100 E2547.45428
G1 F3000 X97.794 Y64.876 E2547.49094
G1 F2100 E2547.09094
G0 F12000 X97.793 Y70.346
G1 F2100 E2547.49094
G1 F3000 X98.114 Y70.531 E2547.52791
G1 F2100 E2547.12791
G0 F12000 X98.113 Y76.010
G1 F2100 E2547.52791
G1 F3000 X97.793 Y76.195 E2547.56479
G1 F2100 E2547.16479
G0 F12000 X97.793 Y81.664
G1 F2100 E2547.56479
G1 F3000 X98.113 Y81.849 E2547.60167
G1 F2100 E2547.20167
G0 F12000 X98.113 Y87.329
G1 F2100 E2547.60167
G1 F3000 X97.793 Y87.513 E2547.63850
G1 F2100 E2547.23850
G0 F12000 X97.793 Y92.983
G1 F2100 E2547.63850
G1 F3000 X98.113 Y93.168 E2547.67539
G1 F2100 E2547.27539
G0 F12000 X98.113 Y98.647
G1 F2100 E2547.67539
G1 F3000 X97.793 Y98.832 E2547.71227
G1 F2100 E2547.31227
G0 F12000 X97.793 Y104.301
G1 F2100 E2547.71227
G1 F3000 X98.113 Y104.486 E2547.74915
G1 F2100 E2547.34915
G0 F12000 X98.113 Y109.965
G1 F2100 E2547.74915
G1 F3000 X97.794 Y110.150 E2547.78594
G1 F2100 E2547.38594
G0 F12000 X97.793 Y115.620
G1 F2100 E2547.78594
G1 F3000 X98.114 Y115.805 E2547.82291
G1 F2100 E2547.42291
G0 F12000 X98.113 Y121.284
G1 F2100 E2547.82291
G1 F3000 X97.794 Y121.468 E2547.85966
G1 F2100 E2547.45966
G0 F12000 X97.793 Y126.938
G1 F2100 E2547.85966
G1 F3000 X98.114 Y127.123 E2547.89663
G1 F2100 E2547.49663
G0 F12000 X98.113 Y132.602
G1 F2100 E2547.89663
G1 F3000 X97.794 Y132.786 E2547.93337
G1 F2100 E2547.53337
G0 F12000 X97.793 Y138.256
G1 F2100 E2547.93337
G1 F3000 X98.113 Y138.441 E2547.97025
G1 F2100 E2547.57025
G0 F12000 X98.113 Y143.921
G1 F2100 E2547.97025
G1 F3000 X97.794 Y144.105 E2548.00700
G1 F2100 E2547.60700
G0 F12000 X97.793 Y149.574
G1 F2100 E2548.00700
G1 F3000 X98.113 Y149.759 E2548.04388
G1 F2100 E2547.64388
G0 F12000 X98.113 Y155.239
G1 F2100 E2548.04388
G1 F3000 X97.794 Y155.423 E2548.08063
G1 F2100 E2547.68063
G0 F12000 X97.794 Y160.893
G1 F2100 E2548.08063
G1 F3000 X98.114 Y161.078 E2548.11751
G1 F2100 E2547.71751
G0 F12000 X98.113 Y166.557
G1 F2100 E2548.11751
G1 F3000 X97.794 Y166.742 E2548.15430
G1 F2100 E2547.75430
G0 F12000 X97.793 Y172.211
G1 F2100 E2548.15430
G1 F3000 X98.114 Y172.396 E2548.19127
G1 F2100 E2547.79127
G0 F12000 X98.113 Y177.875
G1 F2100 E2548.19127
G1 F3000 X97.794 Y178.060 E2548.22807
G1 F2100 E2547.82807
G0 F12000 X97.793 Y183.530
G1 F2100 E2548.22807
G1 F3000 X98.114 Y183.715 E2548.26503
G1 F2100 E2547.86503
G0 F12000 X98.113 Y189.194
G1 F2100 E2548.26503
G1 F3000 X97.794 Y189.378 E2548.30178
G1 F2100 E2547.90178
G0 F12000 X97.793 Y194.848
G1 F2100 E2548.30178
G1 F3000 X98.114 Y195.033 E2548.33875
G1 F2100 E2547.93875
G0 F12000 X98.114 Y200.512
G1 F2100 E2548.33875
G1 F3000 X97.794 Y200.697 E2548.37563
G1 F2100 E2547.97563
G0 F12000 X97.793 Y206.166
G1 F2100 E2548.37563
G1 F3000 X98.114 Y206.352 E2548.41265
G1 F2100 E2548.01265
G0 F12000 X98.113 Y211.831
G1 F2100 E2548.41265
G1 F3000 X97.794 Y212.015 E2548.44939
G1 F2100 E2548.04939
G0 F12000 X97.794 Y217.485
G1 F2100 E2548.44939
G1 F3000 X98.114 Y217.670 E2548.48627
G1 F2100 E2548.08627
G0 F12000 X98.113 Y223.149
G1 F2100 E2548.48627
G1 F3000 X97.794 Y223.333 E2548.52302
G1 F2100 E2548.12302
G0 F12000 X97.793 Y228.803
G1 F2100 E2548.52302
G1 F3000 X98.114 Y228.988 E2548.55999
G1 F2100 E2548.15999
G0 F12000 X98.113 Y234.467
G1 F2100 E2548.55999
G1 F3000 X97.794 Y234.651 E2548.59673
G1 F2100 E2548.19673
G0 F12000 X97.793 Y240.122
G1 F2100 E2548.59673
G1 F3000 X98.114 Y240.307 E2548.63370
G1 F2100 E2548.23370
G0 F12000 X98.113 Y245.786
G1 F2100 E2548.63370
G1 F3000 X97.795 Y245.970 E2548.67036
G1 F2100 E2548.27036
G0 F12000 X106.179 Y248.758
G1 F2100 E2548.67036
G1 F3000 X106.179 Y249.078 E2548.70229
G1 F2100 E2548.30229
G0 F12000 X112.018 Y249.076
G1 F2100 E2548.70229
G1 F3000 X112.661 Y248.756 E2548.76595
G1 X113.303 Y249.076 E2548.83753
G1 F2100 E2548.43753
G0 F12000 X115.981 Y249.078
G1 F2100 E2548.83753
G1 F3000 X115.981 Y248.758 E2548.86946
G1 F2100 E2548.46946
G0 F12000 X125.783 Y248.758
G1 F2100 E2548.86946
G1 F3000 X125.783 Y249.078 E2548.90139
G1 F2100 E2548.50139
G0 F12000 X131.621 Y249.077
G1 F2100 E2548.90139
G1 F3000 X132.265 Y248.756 E2548.96529
G1 X132.907 Y249.076 E2549.03686
G1 F2100 E2548.63686
G0 F12000 X135.585 Y249.078
G1 F2100 E2549.03686
G1 F3000 X135.585 Y248.758 E2549.06879
G1 F2100 E2548.66879
G0 F12000 X145.387 Y248.758
G1 F2100 E2549.06879
G1 F3000 X145.387 Y249.078 E2549.10072
G1 F2100 E2548.70072
G0 F12000 X151.225 Y249.077
G1 F2100 E2549.10072
G1 F3000 X151.869 Y248.757 E2549.16458
G1 X152.511 Y249.076 E2549.23612
G1 F2100 E2548.83612
G0 F12000 X155.189 Y249.078
G1 F2100 E2549.23612
G1 F3000 X155.189 Y248.758 E2549.26805
G1 F2100 E2548.86805
G0 F12000 X164.991 Y248.758
G1 F2100 E2549.26805
G1 F3000 X164.991 Y249.078 E2549.29997
G1 F2100 E2548.89997
G0 F12000 X170.828 Y249.077
G1 F2100 E2549.29997
G1 F3000 X171.472 Y248.757 E2549.36384
G1 X172.115 Y249.076 E2549.43546
G1 F2100 E2549.03546
G0 F12000 X174.793 Y249.078
G1 F2100 E2549.43546
G1 F3000 X174.793 Y248.758 E2549.46739
G1 F2100 E2549.06739
G0 F12000 X184.595 Y248.758
G1 F2100 E2549.46739
G1 F3000 X184.595 Y249.078 E2549.49932
G1 F2100 E2549.09932
G0 F12000 X190.432 Y249.077
G1 F2100 E2549.49932
G1 F3000 X191.077 Y248.757 E2549.56326
G1 X191.719 Y249.076 E2549.63479
G1 F2100 E2549.23479
G0 F12000 X194.397 Y249.078
G1 F2100 E2549.63479
G1 F3000 X194.397 Y248.758 E2549.66672
G1 F2100 E2549.26672
G0 F12000 X204.199 Y248.758
G1 F2100 E2549.66672
G1 F3000 X204.199 Y249.078 E2549.69865
G1 F2100 E2549.29865
G0 F12000 X206.885 Y246.514
G1 F2100 E2549.69865
G1 F3000 X207.206 Y246.699 E2549.73562
G1 F2100 E2549.33562
G0 F12000 X206.885 Y239.578
G1 F2100 E2549.73562
G1 F3000 X207.204 Y239.394 E2549.77236
G1 F2100 E2549.37236
G0 F12000 X207.206 Y235.381
G1 F2100 E2549.77236
G1 F3000 X206.885 Y235.195 E2549.80938
G1 F2100 E2549.40938
G0 F12000 X206.885 Y228.260
G1 F2100 E2549.80938
G1 F3000 X207.204 Y228.076 E2549.84612
G1 F2100 E2549.44612
G0 F12000 X207.205 Y224.062
G1 F2100 E2549.84612
G1 F3000 X206.885 Y223.877 E2549.88301
G1 F2100 E2549.48301
G0 F12000 X206.885 Y216.942
G1 F2100 E2549.88301
G1 F3000 X207.204 Y216.757 E2549.91980
G1 F2100 E2549.51980
G0 F12000 X207.206 Y212.744
G1 F2100 E2549.91980
G1 F3000 X206.885 Y212.559 E2549.95677
G1 F2100 E2549.55677
G0 F12000 X206.886 Y205.623
G1 F2100 E2549.95677
G1 F3000 X207.204 Y205.439 E2549.99343
G1 F2100 E2549.59343
G0 F12000 X207.206 Y201.426
G1 F2100 E2549.99343
G1 F3000 X206.885 Y201.240 E2550.03045
G1 F2100 E2549.63045
G0 F12000 X206.885 Y194.304
G1 F2100 E2550.03045
G1 F3000 X207.204 Y194.120 E2550.06719
G1 F2100 E2549.66719
G0 F12000 X207.206 Y190.107
G1 F2100 E2550.06719
G1 F3000 X206.885 Y189.922 E2550.10416
G1 F2100 E2549.70416
G0 F12000 X206.885 Y182.986
G1 F2100 E2550.10416
G1 F3000 X207.204 Y182.802 E2550.14090
G1 F2100 E2549.74090
G0 F12000 X207.205 Y178.789
G1 F2100 E2550.14090
G1 F3000 X206.885 Y178.604 E2550.17779
G1 F2100 E2549.77779
G0 F12000 X206.885 Y171.668
G1 F2100 E2550.17779
G1 F3000 X207.204 Y171.484 E2550.21453
G1 F2100 E2549.81453
G0 F12000 X207.205 Y167.470
G1 F2100 E2550.21453
G1 F3000 X206.885 Y167.285 E2550.25141
G1 F2100 E2549.85141
G0 F12000 X206.885 Y160.350
G1 F2100 E2550.25141
G1 F3000 X207.204 Y160.166 E2550.28816
G1 F2100 E2549.88816
G0 F12000 X207.206 Y156.152
G1 F2100 E2550.28816
G1 F3000 X206.884 Y155.967 E2550.32521
G1 F2100 E2549.92521
G0 F12000 X206.886 Y149.031
G1 F2100 E2550.32521
G1 F3000 X207.204 Y148.847 E2550.36187
G1 F2100 E2549.96187
G0 F12000 X207.206 Y144.834
G1 F2100 E2550.36187
G1 F3000 X206.884 Y144.648 E2550.39898
G1 F2100 E2549.99898
G0 F12000 X206.885 Y137.713
G1 F2100 E2550.39898
G1 F3000 X207.204 Y137.529 E2550.43572
G1 F2100 E2550.03572
G0 F12000 X207.206 Y133.515
G1 F2100 E2550.43572
G1 F3000 X206.885 Y133.330 E2550.47269
G1 F2100 E2550.07269
G0 F12000 X206.885 Y126.394
G1 F2100 E2550.47269
G1 F3000 X207.204 Y126.210 E2550.50944
G1 F2100 E2550.10944
G0 F12000 X207.205 Y122.197
G1 F2100 E2550.50944
G1 F3000 X206.885 Y122.012 E2550.54632
G1 F2100 E2550.14632
G0 F12000 X206.885 Y115.076
G1 F2100 E2550.54632
G1 F3000 X207.204 Y114.892 E2550.58306
G1 F2100 E2550.18306
G0 F12000 X207.205 Y110.878
G1 F2100 E2550.58306
G1 F3000 X206.884 Y110.693 E2550.62003
G1 F2100 E2550.22003
G0 F12000 X206.885 Y103.758
G1 F2100 E2550.62003
G1 F3000 X207.204 Y103.574 E2550.65678
G1 F2100 E2550.25678
G0 F12000 X207.206 Y99.560
G1 F2100 E2550.65678
G1 F3000 X206.884 Y99.375 E2550.69383
G1 F2100 E2550.29383
G0 F12000 X206.886 Y92.439
G1 F2100 E2550.69383
G1 F3000 X207.204 Y92.255 E2550.73049
G1 F2100 E2550.33049
G0 F12000 X207.206 Y88.242
G1 F2100 E2550.73049
G1 F3000 X206.884 Y88.056 E2550.76759
G1 F2100 E2550.36759
G0 F12000 X206.886 Y81.121
G1 F2100 E2550.76759
G1 F3000 X207.204 Y80.937 E2550.80425
G1 F2100 E2550.40425
G0 F12000 X207.205 Y76.923
G1 F2100 E2550.80425
G1 F3000 X206.885 Y76.738 E2550.84113
G1 F2100 E2550.44113
G0 F12000 X206.885 Y69.802
G1 F2100 E2550.84113
G1 F3000 X207.204 Y69.618 E2550.87788
G1 F2100 E2550.47788
G0 F12000 X207.205 Y65.605
G1 F2100 E2550.87788
G1 F3000 X206.884 Y65.419 E2550.91490
;LAYER:5
M106 S104
G1 F2100 E2550.51490
G0 F12000 X206.676 Y56.452 Z2.400
;TYPE:WALL-INNER
G1 F2100 E2550.91490
G1 F3000 X98.324 Y56.452 E2561.72630
G1 X98.324 Y248.548 E2580.89372
G1 X206.676 Y248.548 E2591.70513
G1 X206.676 Y56.452 E2610.87254
G0 F12000 X207.416 Y55.712
G1 F3000 X207.416 Y249.288 E2630.18764
G1 X97.584 Y249.288 E2641.14672
G1 X97.584 Y55.712 E2660.46181
G1 X207.416 Y55.712 E2671.42089
G0 F12000 X208.016 Y55.112
;TYPE:WALL-OUTER
G1 F3000 X208.016 Y249.888 E2690.85572
G1 X96.984 Y249.888 E2701.93454
G1 X96.984 Y55.112 E2721.36936
G1 X208.016 Y55.112 E2732.44818
G1 F2100 E2732.04818
G0 F12000 X206.076 Y57.052
G1 F2100 E2732.44818
G1 F3000 X98.924 Y57.052 E2743.13985
G1 X98.924 Y247.948 E2762.18753
G1 X206.076 Y247.948 E2772.87920
G1 X206.076 Y57.052 E2791.92688
G1 F2100 E2791.52688
G0 F12000 X206.886 Y58.811
;TYPE:FILL
G1 F2100 E2791.92688
G1 F3000 X207.204 Y58.627 E2791.96354
G1 F2100 E2791.56354
G0 F12000 X203.916 Y56.242
G1 F2100 E2791.96354
G1 F3000 X203.916 Y55.922 E2791.99547
G1 F2100 E2791.59547
G0 F12000 X206.884 Y65.093
G1 F2100 E2791.99547
G1 F3000 X207.205 Y65.278 E2792.03244
G1 F2100 E2791.63244
G0 F12000 X207.204 Y69.945
G1 F2100 E2792.03244
G1 F3000 X206.886 Y70.129 E2792.06910
G1 F2100 E2791.66910
G0 F12000 X206.884 Y76.411
G1 F2100 E2792.06910
G1 F3000 X207.205 Y76.596 E2792.10607
G1 F2100 E2791.70607
G0 F12000 X207.204 Y81.264
G1 F2100 E2792.10607
G1 F3000 X206.885 Y81.448 E2792.14281
G1 F2100 E2791.74281
G0 F12000 X206.884 Y87.729
G1 F2100 E2792.14281
G1 F3000 X207.205 Y87.915 E2792.17983
G1 F2100 E2791.77983
G0 F12000 X207.204 Y92.582
G1 F2100 E2792.17983
G1 F3000 X206.885 Y92.766 E2792.21658
G1 F2100 E2791.81658
G0 F12000 X206.885 Y99.048
G1 F2100 E2792.21658
G1 F3000 X207.205 Y99.233 E2792.25346
G1 F2100 E2791.85346
G0 F12000 X207.204 Y103.900
G1 F2100 E2792.25346
G1 F3000 X206.885 Y104.084 E2792.29020
G1 F2100 E2791.89020
G0 F12000 X206.884 Y110.366
G1 F2100 E2792.29020
G1 F3000 X207.206 Y110.552 E2792.32731
G1 F2100 E2791.92731
G0 F12000 X207.204 Y115.219
G1 F2100 E2792.32731
G1 F3000 X206.886 Y115.403 E2792.36397
G1 F2100 E2791.96397
G0 F12000 X206.884 Y121.685
G1 F2100 E2792.36397
G1 F3000 X207.206 Y121.870 E2792.40102
G1 F2100 E2792.00102
G0 F12000 X207.204 Y126.537
G1 F2100 E2792.40102
G1 F3000 X206.886 Y126.721 E2792.43768
G1 F2100 E2792.03768
G0 F12000 X206.884 Y133.003
G1 F2100 E2792.43768
G1 F3000 X207.205 Y133.188 E2792.47465
G1 F2100 E2792.07465
G0 F12000 X207.204 Y137.856
G1 F2100 E2792.47465
G1 F3000 X206.885 Y138.040 E2792.51139
G1 F2100 E2792.11139
G0 F12000 X206.885 Y144.322
G1 F2100 E2792.51139
G1 F3000 X207.205 Y144.507 E2792.54827
G1 F2100 E2792.14827
G0 F12000 X207.204 Y149.174
G1 F2100 E2792.54827
G1 F3000 X206.885 Y149.358 E2792.58502
G1 F2100 E2792.18502
G0 F12000 X206.885 Y155.640
G1 F2100 E2792.58502
G1 F3000 X207.206 Y155.825 E2792.62199
G1 F2100 E2792.22199
G0 F12000 X207.204 Y160.492
G1 F2100 E2792.62199
G1 F3000 X206.885 Y160.676 E2792.65873
G1 F2100 E2792.25873
G0 F12000 X206.884 Y166.958
G1 F2100 E2792.65873
G1 F3000 X207.206 Y167.144 E2792.69584
G1 F2100 E2792.29584
G0 F12000 X207.204 Y171.810
G1 F2100 E2792.69584
G1 F3000 X206.885 Y171.994 E2792.73258
G1 F2100 E2792.33258
G0 F12000 X206.884 Y178.276
G1 F2100 E2792.73258
G1 F3000 X207.206 Y178.462 E2792.76969
G1 F2100 E2792.36969
G0 F12000 X207.204 Y183.129
G1 F2100 E2792.76969
G1 F3000 X206.886 Y183.313 E2792.80635
G1 F2100 E2792.40635
G0 F12000 X206.885 Y189.595
G1 F2100 E2792.80635
G1 F3000 X207.205 Y189.780 E2792.84323
G1 F2100 E2792.44323
G0 F12000 X207.204 Y194.447
G1 F2100 E2792.84323
G1 F3000 X206.885 Y194.632 E2792.88002
G1 F2100 E2792.48002
G0 F12000 X206.885 Y200.914
G1 F2100 E2792.88002
G1 F3000 X207.205 Y201.099 E2792.91690
G1 F2100 E2792.51690
G0 F12000 X207.204 Y205.766
G1 F2100 E2792.91690
G1 F3000 X206.885 Y205.950 E2792.95365
G1 F2100 E2792.55365
G0 F12000 X206.885 Y212.232
G1 F2100 E2792.95365
G1 F3000 X207.206 Y212.417 E2792.99062
G1 F2100 E2792.59062
G0 F12000 X207.204 Y217.084
G1 F2100 E2792.99062
G1 F3000 X206.885 Y217.268 E2793.02736
G1 F2100 E2792.62736
G0 F12000 X206.885 Y223.550
G1 F2100 E2793.02736
G1 F3000 X207.206 Y223.736 E2793.06438
G1 F2100 E2792.66438
G0 F12000 X207.204 Y228.402
G1 F2100 E2793.06438
G1 F3000 X206.885 Y228.586 E2793.10113
G1 F2100 E2792.70113
G0 F12000 X206.885 Y234.869
G1 F2100 E2793.10113
G1 F3000 X207.206 Y235.054 E2793.13809
G1 F2100 E2792.73809
G0 F12000 X207.204 Y239.721
G1 F2100 E2793.13809
G1 F3000 X206.885 Y239.905 E2793.17484
G1 F2100 E2792.77484
G0 F12000 X206.885 Y246.187
G1 F2100 E2793.17484
G1 F3000 X207.205 Y246.372 E2793.21172
G1 F2100 E2792.81172
G0 F12000 X203.916 Y248.758
G1 F2100 E2793.21172
G1 F3000 X203.916 Y249.078 E2793.24365
G1 F2100 E2792.84365
G0 F12000 X194.114 Y249.078
G1 F2100 E2793.24365
G1 F3000 X194.114 Y248.758 E2793.27558
G1 F2100 E2792.87558
G0 F12000 X192.285 Y249.076
G1 F2100 E2793.27558
G1 F3000 X191.642 Y248.757 E2793.33920
G1 X190.998 Y249.077 E2793.41096
G1 F2100 E2793.01096
G0 F12000 X184.312 Y249.078
G1 F2100 E2793.41096
G1 F3000 X184.312 Y248.758 E2793.44289
G1 F2100 E2793.04289
G0 F12000 X174.510 Y248.758
G1 F2100 E2793.44289
G1 F3000 X174.510 Y249.078 E2793.47482
G1 F2100 E2793.07482
G0 F12000 X172.681 Y249.076
G1 F2100 E2793.47482
G1 F3000 X172.038 Y248.757 E2793.53844
G1 X171.395 Y249.077 E2793.61011
G1 F2100 E2793.21011
G0 F12000 X164.708 Y249.078
G1 F2100 E2793.61011
G1 F3000 X164.708 Y248.758 E2793.64204
G1 F2100 E2793.24204
G0 F12000 X154.906 Y248.758
G1 F2100 E2793.64204
G1 F3000 X154.906 Y249.078 E2793.67397
G1 F2100 E2793.27397
G0 F12000 X153.078 Y249.077
G1 F2100 E2793.67397
G1 F3000 X152.435 Y248.757 E2793.73763
G1 X151.790 Y249.077 E2793.80947
G1 F2100 E2793.40947
G0 F12000 X145.104 Y249.078
G1 F2100 E2793.80947
G1 F3000 X145.104 Y248.758 E2793.84140
G1 F2100 E2793.44140
G0 F12000 X135.302 Y248.758
G1 F2100 E2793.84140
G1 F3000 X135.302 Y249.078 E2793.87333
G1 F2100 E2793.47333
G0 F12000 X133.473 Y249.076
G1 F2100 E2793.87333
G1 F3000 X132.831 Y248.756 E2793.93691
G1 X132.187 Y249.077 E2794.00871
G1 F2100 E2793.60871
G0 F12000 X125.500 Y249.078
G1 F2100 E2794.00871
G1 F3000 X125.500 Y248.758 E2794.04064
G1 F2100 E2793.64064
G0 F12000 X115.698 Y248.758
G1 F2100 E2794.04064
G1 F3000 X115.698 Y249.078 E2794.07257
G1 F2100 E2793.67257
G0 F12000 X113.870 Y249.077
G1 F2100 E2794.07257
G1 F3000 X113.227 Y248.757 E2794.13623
G1 X112.583 Y249.077 E2794.20799
G1 F2100 E2793.80799
G0 F12000 X105.896 Y249.078
G1 F2100 E2794.20799
G1 F3000 X105.896 Y248.758 E2794.23992
G1 F2100 E2793.83992
G0 F12000 X98.114 Y246.112
G1 F2100 E2794.23992
G1 F3000 X97.794 Y246.297 E2794.27680
G1 F2100 E2793.87680
G0 F12000 X98.114 Y239.980
G1 F2100 E2794.27680
G1 F3000 X97.794 Y239.795 E2794.31368
G1 F2100 E2793.91368
G0 F12000 X97.794 Y234.978
G1 F2100 E2794.31368
G1 F3000 X98.114 Y234.794 E2794.35051
G1 F2100 E2793.95051
G0 F12000 X98.114 Y228.662
G1 F2100 E2794.35051
G1 F3000 X97.794 Y228.477 E2794.38739
G1 F2100 E2793.98739
G0 F12000 X97.794 Y223.660
G1 F2100 E2794.38739
G1 F3000 X98.113 Y223.476 E2794.42414
G1 F2100 E2794.02414
G0 F12000 X98.114 Y217.344
G1 F2100 E2794.42414
G1 F3000 X97.793 Y217.158 E2794.46116
G1 F2100 E2794.06116
G0 F12000 X97.795 Y212.341
G1 F2100 E2794.46116
G1 F3000 X98.113 Y212.157 E2794.49782
G1 F2100 E2794.09782
G0 F12000 X98.114 Y206.025
G1 F2100 E2794.49782
G1 F3000 X97.793 Y205.840 E2794.53479
G1 F2100 E2794.13479
G0 F12000 X97.794 Y201.023
G1 F2100 E2794.53479
G1 F3000 X98.113 Y200.839 E2794.57153
G1 F2100 E2794.17153
G0 F12000 X98.114 Y194.706
G1 F2100 E2794.57153
G1 F3000 X97.793 Y194.521 E2794.60850
G1 F2100 E2794.20850
G0 F12000 X97.794 Y189.705
G1 F2100 E2794.60850
G1 F3000 X98.113 Y189.521 E2794.64524
G1 F2100 E2794.24524
G0 F12000 X98.114 Y183.388
G1 F2100 E2794.64524
G1 F3000 X97.794 Y183.203 E2794.68213
G1 F2100 E2794.28213
G0 F12000 X97.794 Y178.387
G1 F2100 E2794.68213
G1 F3000 X98.114 Y178.202 E2794.71901
G1 F2100 E2794.31901
G0 F12000 X98.114 Y172.070
G1 F2100 E2794.71901
G1 F3000 X97.793 Y171.884 E2794.75603
G1 F2100 E2794.35603
G0 F12000 X97.794 Y167.068
G1 F2100 E2794.75603
G1 F3000 X98.113 Y166.884 E2794.79277
G1 F2100 E2794.39277
G0 F12000 X98.113 Y160.751
G1 F2100 E2794.79277
G1 F3000 X97.793 Y160.566 E2794.82965
G1 F2100 E2794.42965
G0 F12000 X97.794 Y155.750
G1 F2100 E2794.82965
G1 F3000 X98.113 Y155.566 E2794.86640
G1 F2100 E2794.46640
G0 F12000 X98.114 Y149.433
G1 F2100 E2794.86640
G1 F3000 X97.793 Y149.248 E2794.90337
G1 F2100 E2794.50337
G0 F12000 X97.794 Y144.432
G1 F2100 E2794.90337
G1 F3000 X98.113 Y144.247 E2794.94016
G1 F2100 E2794.54016
G0 F12000 X98.114 Y138.115
G1 F2100 E2794.94016
G1 F3000 X97.793 Y137.930 E2794.97713
G1 F2100 E2794.57713
G0 F12000 X97.793 Y133.113
G1 F2100 E2794.97713
G1 F3000 X98.113 Y132.929 E2795.01396
G1 F2100 E2794.61396
G0 F12000 X98.114 Y126.796
G1 F2100 E2795.01396
G1 F3000 X97.794 Y126.611 E2795.05084
G1 F2100 E2794.65084
G0 F12000 X97.794 Y121.795
G1 F2100 E2795.05084
G1 F3000 X98.113 Y121.611 E2795.08759
G1 F2100 E2794.68759
G0 F12000 X98.113 Y115.477
G1 F2100 E2795.08759
G1 F3000 X97.793 Y115.292 E2795.12447
G1 F2100 E2794.72447
G0 F12000 X97.794 Y110.476
G1 F2100 E2795.12447
G1 F3000 X98.113 Y110.292 E2795.16121
G1 F2100 E2794.76121
G0 F12000 X98.113 Y104.159
G1 F2100 E2795.16121
G1 F3000 X97.793 Y103.974 E2795.19810
G1 F2100 E2794.79810
G0 F12000 X97.794 Y99.158
G1 F2100 E2795.19810
G1 F3000 X98.113 Y98.974 E2795.23484
G1 F2100 E2794.83484
G0 F12000 X98.114 Y92.841
G1 F2100 E2795.23484
G1 F3000 X97.793 Y92.656 E2795.27181
G1 F2100 E2794.87181
G0 F12000 X97.794 Y87.840
G1 F2100 E2795.27181
G1 F3000 X98.113 Y87.655 E2795.30861
G1 F2100 E2794.90861
G0 F12000 X98.114 Y81.523
G1 F2100 E2795.30861
G1 F3000 X97.793 Y81.338 E2795.34557
G1 F2100 E2794.94557
G0 F12000 X97.793 Y76.522
G1 F2100 E2795.34557
G1 F3000 X98.113 Y76.337 E2795.38245
G1 F2100 E2794.98245
G0 F12000 X98.113 Y70.204
G1 F2100 E2795.38245
G1 F3000 X97.793 Y70.019 E2795.41934
G1 F2100 E2795.01934
G0 F12000 X97.793 Y65.203
G1 F2100 E2795.41934
G1 F3000 X98.113 Y65.019 E2795.45617
G1 F2100 E2795.05617
G0 F12000 X98.113 Y58.886
G1 F2100 E2795.45617
G1 F3000 X97.793 Y58.701 E2795.49305
G1 F2100 E2795.09305
G0 F12000 X105.896 Y56.242
G1 F2100 E2795.49305
G1 F3000 X105.896 Y55.922 E2795.52498
G1 F2100 E2795.12498
G0 F12000 X112.584 Y55.922
G1 F2100 E2795.52498
G1 F3000 X113.226 Y56.242 E2795.58868
G1 X113.871 Y55.921 E2795.66057
G1 F2100 E2795.26057
G0 F12000 X115.698 Y55.922
G1 F2100 E2795.66057
G1 F3000 X115.698 Y56.242 E2795.69250
G1 F2100 E2795.29250
G0 F12000 X125.500 Y56.242
G1 F2100 E2795.69250
G1 F3000 X125.500 Y55.922 E2795.72443
G1 F2100 E2795.32443
G0 F12000 X132.187 Y55.922
G1 F2100 E2795.72443
G1 F3000 X132.830 Y56.242 E2795.78821
G1 X133.475 Y55.921 E2795.86010
G1 F2100 E2795.46010
G0 F12000 X135.302 Y55.922
G1 F2100 E2795.86010
G1 F3000 X135.302 Y56.242 E2795.89203
G1 F2100 E2795.49203
G0 F12000 X145.104 Y56.242
G1 F2100 E2795.89203
G1 F3000 X145.104 Y55.922 E2795.92396
G1 F2100 E2795.52396
G0 F12000 X151.792 Y55.922
G1 F2100 E2795.92396
G1 F3000 X152.434 Y56.242 E2795.98766
G1 X153.079 Y55.921 E2796.05955
G1 F2100 E2795.65955
G0 F12000 X154.906 Y55.922
G1 F2100 E2796.05955
G1 F3000 X154.906 Y56.242 E2796.09148
G1 F2100 E2795.69148
G0 F12000 X164.708 Y56.242
G1 F2100 E2796.09148
G1 F3000 X164.708 Y55.922 E2796.12341
G1 F2100 E2795.72341
G0 F12000 X171.395 Y55.921
G1 F2100 E2796.12341
G1 F3000 X172.038 Y56.242 E2796.18735
G1 X172.683 Y55.921 E2796.25924
G1 F2100 E2795.85924
G0 F12000 X174.510 Y55.922
G1 F2100 E2796.25924
G1 F3000 X174.510 Y56.242 E2796.29117
G1 F2100 E2795.89117
G0 F12000 X184.312 Y56.242
G1 F2100 E2796.29117
G1 F3000 X184.312 Y55.922 E2796.32310
G1 F2100 E2795.92310
G0 F12000 X191.000 Y55.922
G1 F2100 E2796.32310
G1 F3000 X191.642 Y56.242 E2796.38680
G1 X192.287 Y55.921 E2796.45869
G1 F2100 E2796.05869
G0 F12000 X194.114 Y55.922
G1 F2100 E2796.45869
G1 F3000 X194.114 Y56.242 E2796.49062
;LAYER:6
M106 S127
G1 F2100 E2796.09062
G0 F12000 X206.676 Y56.452 Z2.800
;TYPE:WALL-INNER
G1 F2100 E2796.49062
G1 F3000 X98.324 Y56.452 E2807.30202
G1 X98.324 Y248.548 E2826.46944
G1 X206.676 Y248.548 E2837.28085
G1 X206.676 Y56.452 E2856.44826
G0 F12000 X207.416 Y55.712
G1 F3000 X207.416 Y249.288 E2875.76336
G1 X97.584 Y249.288 E2886.72244
G1 X97.584 Y55.712 E2906.03753
G1 X207.416 Y55.712 E2916.99661
G0 F12000 X208.016 Y55.112
;TYPE:WALL-OUTER
G1 F3000 X208.016 Y249.888 E2936.43144
G1 X96.984 Y249.888 E2947.51026
G1 X96.984 Y55.112 E2966.94508
G1 X208.016 Y55.112 E2978.02390
G1 F2100 E2977.62390
G0 F12000 X206.076 Y57.052
G1 F2100 E2978.02390
G1 F3000 X98.924 Y57.052 E2988.71557
G1 X98.924 Y247.948 E3007.76325
G1 X206.076 Y247.948 E3018.45492
G1 X206.076 Y57.052 E3037.50260
G1 F2100 E3037.10260
G0 F12000 X207.204 Y58.954
;TYPE:FILL
G1 F2100 E3037.50260
G1 F3000 X206.885 Y59.138 E3037.53935
G1 F2100 E3037.13935
G0 F12000 X203.633 Y56.242
G1 F2100 E3037.53935
G1 F3000 X203.633 Y55.922 E3037.57128
G1 F2100 E3037.17128
G0 F12000 X206.885 Y64.766
G1 F2100 E3037.57128
G1 F3000 X207.205 Y64.951 E3037.60816
G1 F2100 E3037.20816
G0 F12000 X207.204 Y70.272
G1 F2100 E3037.60816
G1 F3000 X206.885 Y70.456 E3037.64490
G1 F2100 E3037.24490
G0 F12000 X206.884 Y76.084
G1 F2100 E3037.64490
G1 F3000 X207.206 Y76.270 E3037.68201
G1 F2100 E3037.28201
G0 F12000 X207.204 Y81.590
G1 F2100 E3037.68201
G1 F3000 X206.885 Y81.774 E3037.71875
G1 F2100 E3037.31875
G0 F12000 X206.884 Y87.403
G1 F2100 E3037.71875
G1 F3000 X207.206 Y87.588 E3037.75581
G1 F2100 E3037.35581
G0 F12000 X207.204 Y92.909
G1 F2100 E3037.75581
G1 F3000 X206.886 Y93.093 E3037.79247
G1 F2100 E3037.39247
G0 F12000 X206.884 Y98.721
G1 F2100 E3037.79247
G1 F3000 X207.205 Y98.906 E3037.82944
G1 F2100 E3037.42944
G0 F12000 X207.204 Y104.227
G1 F2100 E3037.82944
G1 F3000 X206.886 Y104.411 E3037.86609
G1 F2100 E3037.46609
G0 F12000 X206.885 Y110.040
G1 F2100 E3037.86609
G1 F3000 X207.205 Y110.225 E3037.90298
G1 F2100 E3037.50298
G0 F12000 X207.204 Y115.546
G1 F2100 E3037.90298
G1 F3000 X206.885 Y115.730 E3037.93972
G1 F2100 E3037.53972
G0 F12000 X206.885 Y121.358
G1 F2100 E3037.93972
G1 F3000 X207.206 Y121.544 E3037.97674
G1 F2100 E3037.57674
G0 F12000 X207.204 Y126.864
G1 F2100 E3037.97674
G1 F3000 X206.885 Y127.048 E3038.01348
G1 F2100 E3037.61348
G0 F12000 X206.884 Y132.676
G1 F2100 E3038.01348
G1 F3000 X207.206 Y132.862 E3038.05059
G1 F2100 E3037.65059
G0 F12000 X207.204 Y138.182
G1 F2100 E3038.05059
G1 F3000 X206.885 Y138.366 E3038.08733
G1 F2100 E3037.68733
G0 F12000 X206.884 Y143.995
G1 F2100 E3038.08733
G1 F3000 X207.206 Y144.180 E3038.12439
G1 F2100 E3037.72439
G0 F12000 X207.204 Y149.501
G1 F2100 E3038.12439
G1 F3000 X206.885 Y149.685 E3038.16113
G1 F2100 E3037.76113
G0 F12000 X206.885 Y155.313
G1 F2100 E3038.16113
G1 F3000 X207.205 Y155.498 E3038.19802
G1 F2100 E3037.79802
G0 F12000 X207.204 Y160.819
G1 F2100 E3038.19802
G1 F3000 X206.886 Y161.003 E3038.23468
G1 F2100 E3037.83468
G0 F12000 X206.885 Y166.632
G1 F2100 E3038.23468
G1 F3000 X207.205 Y166.817 E3038.27156
G1 F2100 E3037.87156
G0 F12000 X207.204 Y172.137
G1 F2100 E3038.27156
G1 F3000 X206.885 Y172.322 E3038.30835
G1 F2100 E3037.90835
G0 F12000 X206.885 Y177.950
G1 F2100 E3038.30835
G1 F3000 X207.206 Y178.135 E3038.34532
G1 F2100 E3037.94532
G0 F12000 X207.204 Y183.456
G1 F2100 E3038.34532
G1 F3000 X206.885 Y183.640 E3038.38207
G1 F2100 E3037.98207
G0 F12000 X206.884 Y189.268
G1 F2100 E3038.38207
G1 F3000 X207.206 Y189.454 E3038.41917
G1 F2100 E3038.01917
G0 F12000 X207.204 Y194.774
G1 F2100 E3038.41917
G1 F3000 X206.885 Y194.958 E3038.45592
G1 F2100 E3038.05592
G0 F12000 X206.885 Y200.587
G1 F2100 E3038.45592
G1 F3000 X207.206 Y200.772 E3038.49288
G1 F2100 E3038.09288
G0 F12000 X207.204 Y206.092
G1 F2100 E3038.49288
G1 F3000 X206.885 Y206.276 E3038.52963
G1 F2100 E3038.12963
G0 F12000 X206.885 Y211.905
G1 F2100 E3038.52963
G1 F3000 X207.205 Y212.090 E3038.56651
G1 F2100 E3038.16651
G0 F12000 X207.204 Y217.411
G1 F2100 E3038.56651
G1 F3000 X206.886 Y217.595 E3038.60317
G1 F2100 E3038.20317
G0 F12000 X206.885 Y223.224
G1 F2100 E3038.60317
G1 F3000 X207.206 Y223.409 E3038.64014
G1 F2100 E3038.24014
G0 F12000 X207.204 Y228.729
G1 F2100 E3038.64014
G1 F3000 X206.885 Y228.913 E3038.67688
G1 F2100 E3038.27688
G0 F12000 X206.885 Y234.542
G1 F2100 E3038.67688
G1 F3000 X207.206 Y234.727 E3038.71385
G1 F2100 E3038.31385
G0 F12000 X207.204 Y240.048
G1 F2100 E3038.71385
G1 F3000 X206.885 Y240.232 E3038.75060
G1 F2100 E3038.35060
G0 F12000 X206.885 Y245.860
G1 F2100 E3038.75060
G1 F3000 X207.206 Y246.046 E3038.78761
G1 F2100 E3038.38761
G0 F12000 X203.633 Y248.758
G1 F2100 E3038.78761
G1 F3000 X203.633 Y249.078 E3038.81954
G1 F2100 E3038.41954
G0 F12000 X193.831 Y249.078
G1 F2100 E3038.81954
G1 F3000 X193.341 Y248.917 E3038.85145
G1 X192.208 Y248.757 E3038.91501
G1 X191.564 Y249.077 E3038.98676
G1 F2100 E3038.58676
G0 F12000 X184.029 Y249.078
G1 F2100 E3038.98676
G1 F3000 X184.029 Y248.758 E3039.01869
G1 F2100 E3038.61869
G0 F12000 X174.227 Y248.758
G1 F2100 E3039.01869
G1 F3000 X173.737 Y249.077 E3039.05058
G1 X172.605 Y248.756 E3039.11418
G1 X171.961 Y249.077 E3039.18598
G1 F2100 E3038.78598
G0 F12000 X164.425 Y249.078
G1 F2100 E3039.18598
G1 F3000 X164.425 Y248.758 E3039.21791
G1 F2100 E3038.81791
G0 F12000 X154.623 Y248.758
G1 F2100 E3039.21791
G1 F3000 X154.133 Y249.077 E3039.24980
G1 X153.000 Y248.757 E3039.31343
G1 X152.357 Y249.077 E3039.38510
G1 F2100 E3038.98510
G0 F12000 X144.821 Y249.078
G1 F2100 E3039.38510
G1 F3000 X144.821 Y248.758 E3039.41703
G1 F2100 E3039.01703
G0 F12000 X135.019 Y248.758
G1 F2100 E3039.41703
G1 F3000 X134.529 Y249.077 E3039.44892
G1 X133.397 Y248.756 E3039.51251
G1 X132.753 Y249.077 E3039.58431
G1 F2100 E3039.18431
G0 F12000 X125.217 Y249.078
G1 F2100 E3039.58431
G1 F3000 X125.217 Y248.758 E3039.61624
G1 F2100 E3039.21624
G0 F12000 X115.415 Y248.758
G1 F2100 E3039.61624
G1 F3000 X114.925 Y249.077 E3039.64813
G1 X113.793 Y248.756 E3039.71192
G1 X113.149 Y249.077 E3039.78372
G1 F2100 E3039.38372
G0 F12000 X105.613 Y249.078
G1 F2100 E3039.78372
G1 F3000 X105.613 Y248.758 E3039.81565
G1 F2100 E3039.41565
G0 F12000 X98.113 Y246.439
G1 F2100 E3039.81565
G1 F3000 X97.794 Y246.623 E3039.85240
G1 F2100 E3039.45240
G0 F12000 X98.114 Y239.654
G1 F2100 E3039.85240
G1 F3000 X97.793 Y239.468 E3039.88942
G1 F2100 E3039.48942
G0 F12000 X97.794 Y235.305
G1 F2100 E3039.88942
G1 F3000 X98.113 Y235.121 E3039.92616
G1 F2100 E3039.52616
G0 F12000 X98.114 Y228.335
G1 F2100 E3039.92616
G1 F3000 X97.793 Y228.150 E3039.96313
G1 F2100 E3039.56313
G0 F12000 X97.794 Y223.987
G1 F2100 E3039.96313
G1 F3000 X98.114 Y223.802 E3040.00001
G1 F2100 E3039.60001
G0 F12000 X98.114 Y217.016
G1 F2100 E3040.00001
G1 F3000 X97.793 Y216.831 E3040.03698
G1 F2100 E3039.63698
G0 F12000 X97.794 Y212.669
G1 F2100 E3040.03698
G1 F3000 X98.114 Y212.484 E3040.07386
G1 F2100 E3039.67386
G0 F12000 X98.114 Y205.698
G1 F2100 E3040.07386
G1 F3000 X97.794 Y205.513 E3040.11074
G1 F2100 E3039.71074
G0 F12000 X97.794 Y201.350
G1 F2100 E3040.11074
G1 F3000 X98.113 Y201.166 E3040.14749
G1 F2100 E3039.74749
G0 F12000 X98.114 Y194.380
G1 F2100 E3040.14749
G1 F3000 X97.793 Y194.194 E3040.18451
G1 F2100 E3039.78451
G0 F12000 X97.794 Y190.032
G1 F2100 E3040.18451
G1 F3000 X98.113 Y189.847 E3040.22130
G1 F2100 E3039.82130
G0 F12000 X98.113 Y183.061
G1 F2100 E3040.22130
G1 F3000 X97.793 Y182.876 E3040.25818
G1 F2100 E3039.85818
G0 F12000 X97.794 Y178.713
G1 F2100 E3040.25818
G1 F3000 X98.113 Y178.529 E3040.29493
G1 F2100 E3039.89493
G0 F12000 X98.114 Y171.743
G1 F2100 E3040.29493
G1 F3000 X97.793 Y171.558 E3040.33190
G1 F2100 E3039.93190
G0 F12000 X97.794 Y167.395
G1 F2100 E3040.33190
G1 F3000 X98.113 Y167.211 E3040.36864
G1 F2100 E3039.96864
G0 F12000 X98.114 Y160.425
G1 F2100 E3040.36864
G1 F3000 X97.793 Y160.240 E3040.40561
G1 F2100 E3040.00561
G0 F12000 X97.794 Y156.077
G1 F2100 E3040.40561
G1 F3000 X98.113 Y155.893 E3040.44236
G1 F2100 E3040.04236
G0 F12000 X98.114 Y149.106
G1 F2100 E3040.44236
G1 F3000 X97.794 Y148.921 E3040.47924
G1 F2100 E3040.07924
G0 F12000 X97.794 Y144.758
G1 F2100 E3040.47924
G1 F3000 X98.113 Y144.574 E3040.51598
G1 F2100 E3040.11598
G0 F12000 X98.113 Y137.787
G1 F2100 E3040.51598
G1 F3000 X97.793 Y137.602 E3040.55286
G1 F2100 E3040.15286
G0 F12000 X97.794 Y133.440
G1 F2100 E3040.55286
G1 F3000 X98.113 Y133.256 E3040.58961
G1 F2100 E3040.18961
G0 F12000 X98.113 Y126.469
G1 F2100 E3040.58961
G1 F3000 X97.793 Y126.284 E3040.62649
G1 F2100 E3040.22649
G0 F12000 X97.794 Y122.122
G1 F2100 E3040.62649
G1 F3000 X98.113 Y121.937 E3040.66329
G1 F2100 E3040.26329
G0 F12000 X98.114 Y115.151
G1 F2100 E3040.66329
G1 F3000 X97.793 Y114.966 E3040.70025
G1 F2100 E3040.30025
G0 F12000 X97.793 Y110.803
G1 F2100 E3040.70025
G1 F3000 X98.113 Y110.619 E3040.73709
G1 F2100 E3040.33709
G0 F12000 X98.114 Y103.833
G1 F2100 E3040.73709
G1 F3000 X97.793 Y103.648 E3040.77405
G1 F2100 E3040.37405
G0 F12000 X97.793 Y99.485
G1 F2100 E3040.77405
G1 F3000 X98.113 Y99.301 E3040.81089
G1 F2100 E3040.41089
G0 F12000 X98.113 Y92.514
G1 F2100 E3040.81089
G1 F3000 X97.793 Y92.329 E3040.84777
G1 F2100 E3040.44777
G0 F12000 X97.794 Y88.166
G1 F2100 E3040.84777
G1 F3000 X98.113 Y87.982 E3040.88451
G1 F2100 E3040.48451
G0 F12000 X98.113 Y81.196
G1 F2100 E3040.88451
G1 F3000 X97.793 Y81.011 E3040.92139
G1 F2100 E3040.52139
G0 F12000 X97.794 Y76.848
G1 F2100 E3040.92139
G1 F3000 X98.113 Y76.664 E3040.95814
G1 F2100 E3040.55814
G0 F12000 X98.113 Y69.877
G1 F2100 E3040.95814
G1 F3000 X97.793 Y69.692 E3040.99502
G1 F2100 E3040.59502
G0 F12000 X97.794 Y65.530
G1 F2100 E3040.99502
G1 F3000 X98.113 Y65.345 E3041.03182
G1 F2100 E3040.63182
G0 F12000 X98.114 Y58.559
G1 F2100 E3041.03182
G1 F3000 X97.793 Y58.374 E3041.06878
